!!!!SEGMENT: pl-cz--iii-753--001-010_zebrowski-marcin-jozef--vesperae-in-d-nisi-dominus.krn
!!!cenid: 17xx:2381
!!!COM: Żebrowski, Marcin Józef
!!!COM-rismID: pe30020322
!!!CDT: 1702-1770/06/29
!!!CNT: Polish
!!!OPR: Vesperae in D
!!!OTL: Nisi Dominus
!!!OMV: 010
!!!PDT:
!!!AGN:
!!!SMS-siglum: PL-CZ
!!!SMS-shelfmark: III-753
!!!SMS-shelfwork: 001-010 M
!!!SMS-variant:
!!!SMS-altvar:
!!!NIFC-rismSourceID: 300033504
!!!NIFC-rismChildID: 300033505
!!!NIFC-islandoraID: pl-cz:25492
!!!URL-pdf-islandora: https://repozytorium.nifc.pl/islandora/object/pl-cz%3A25492/datastream/PDF/view
!!!URL-scan: https://polish.musicsources.pl/pl/lokalizacje/galeria/rekopisy/1484 @EN{Scan on Polish Music Sources Website} @PL{Skany w portalu Dziedzictwo Muzyki Polskiej w otwartym dostępie}
!!!ONB-nifc: UWAGA: części Nieszporów: 1. Dixit Dominus, 2. Confitebor, 3. Beatus vir, 4. Laudate pueri, 5. Laudate Dominum, 6. Credidi, 7. In convertendo, 8. Domine probasti me, 9. Laetatus sum, 10. Nisi Dominus, 11. Lauda Jerusalem, 12. Magnificat, 13. Quia respexit, 14. Deposuit potentes, 15. Gloria patri
!!!AIN: 1 alto 1 bass 2 clrno 1 fagot 1 organ 1 soprn 1 tenor 2 violn
!!!key: g
**kern	**fba	**dynam	**kern	**dynam	**kern	**dynam	**kern	**dynam	**kern	**text	**kern	**text	**kern	**kern	**kern	**kern
*group4	*	*	*group4	*	*group3	*	*group3	*	*group2	*	*group2	*	*group2	*group2	*group1	*group1
*part10	*part10	*part10	*part9	*part9	*part8	*part8	*part7	*part7	*part6	*part6	*part5	*part5	*part4	*part3	*part2	*part1
*staff10	*	*	*staff9	*staff9	*staff8	*	*staff7	*	*staff6	*staff6	*staff5	*staff5	*staff4	*staff3	*staff2	*staff1
*I"Organo.	*	*	*I"Baſsone.	*	*I"Violino Secondo.	*	*I"Violino Primo.	*	*I"Baſso.	*	*I"Tenore.	*	*I"Alto.	*I"Canto.	*I"Clarino Secondo ex D.	*I"Clarino Primo ex D
*mI"Organo	*	*	*mI"Fagotto	*	*mI"Violino II	*	*mI"Violino I	*	*mI"Basso	*	*mI"Tenore	*	*mI"Alto	*mI"Soprano	*mI"Clarino II in D	*mI"Clarino I in D
*I'org	*	*	*I'fag	*	*I'vl 2	*	*I'vl 1	*	*I'B	*	*I'T	*	*I'A	*I'S	*I'clno 2 in D	*I'clno 1 in D
*Iorgan	*	*	*Ifagot	*	*Ivioln	*	*Ivioln	*	*Ibass	*	*Itenor	*	*Ialto	*Isoprn	*Iclrno	*Iclrno
*ICklav	*	*	*ICww	*	*ICstr	*	*ICstr	*	*ICvox	*	*ICvox	*	*ICvox	*ICvox	*ICbras	*ICbras
*IGcont	*	*	*	*	*	*	*	*	*	*	*	*	*tacet	*tacet	*tacet	*tacet
*clefF4	*	*	*clefF4	*	*clefG2	*	*clefG2	*	*clefF4	*	*clefC4	*	*	*	*	*
*	*	*	*	*	*	*	*	*	*	*	*mclefGv2	*	*	*	*	*
*k[e-b-]	*	*	*k[e-b-]	*	*k[b-e-]	*	*k[e-b-]	*	*k[b-e-]	*	*k[b-e-]	*	*	*	*	*
*mk[b-e-]	*	*	*mk[b-e-]	*	*	*	*mk[b-e-]	*	*	*	*	*	*	*	*	*
*g:	*	*	*g:	*	*g:	*	*g:	*	*g:	*	*g:	*	*	*	*	*
*M2/2	*	*	*M2/2	*	*M2/2	*	*M2/2	*	*M2/2	*	*M2/2	*	*	*	*	*
*met(c|)	*	*	*met(c|)	*	*met(c|)	*	*met(c|)	*	*met(c|)	*	*met(c|)	*	*	*	*	*
*mmet(c|)	*	*	*mmet(c|)	*	*mmet(c|)	*	*mmet(c|)	*	*mmet(c|)	*	*mmet(c|)	*	*	*	*	*
=1	=1	=1	=1	=1	=1	=1	=1	=1	=1	=1	=1	=1	=1	=1	=1	=1
*	*	*	*	*	*2\right	*	*	*	*	*	*	*	*	*	*	*
!	!	!	!	!	!	!	!	!	!	!	!LO:TX:a:t=18.:mod=	!	!	!	!	!
!LO:TX:b:i:t=Solo.:mod=	!	!	!LO:TX:a:i:t=Solo:mod=	!	!	!	!LO:TX:a:t=3.:mod=	!	!LO:TX:a:t=21.:mod=	!	!LO:TX:a:i:t=Solo.:mod=	!	!	!	!	!
!LO:TX:a:Bi:t=Allo.:mod=	!	!	!LO:TX:a:Bi:t=Allo.:mod=	!	!LO:TX:b:Bi:t=Allo.:mod=	!	!LO:TX:b:Bi:t=Allo.:mod=	!	!LO:TX:a:Bi:t=Allo:mod=	!	!LO:TX:a:Bi:t=Allo.:mod=	!	!LO:TX:a:i:t=Nisi Dominus tacet.:mod=	!LO:TX:a:i:t=Nisi Dominus tacet.:mod=	!LO:TX:t=P:problem=w źródle brak informacji o części "Nisi Dominus"	!LO:TX:t=P:problem=w źródle brak informacji o części "Nisi Dominus"
4r	.	.	4r	.	2dd\	.	0r	.	00r	.	00r	.	1ryy	1ryy	1ryy	1ryy
4G\	.	.	4G\	.	.	.	.	.	.	.	.	.	.	.	.	.
.	.	.	.	.	16qqcc\LL	.	.	.	.	.	.	.	.	.	.	.
.	.	.	.	.	16qqdd\JJ	.	.	.	.	.	.	.	.	.	.	.
*2\right	*	*	*2\right	*	*	*	*	*	*	*	*	*	*	*	*	*
[2c\	.	.	[2c\	.	2ee-\	.	.	.	.	.	.	.	.	.	.	.
=2	=2	=2	=2	=2	=2	=2	=2	=2	=2	=2	=2	=2	=2	=2	=2	=2
4c\]	+4r 2	.	4c\]	.	4.dd\	.	.	.	.	.	.	.	1ryy	1ryy	1ryy	1ryy
8B-\L	.	.	8B-\L	.	.	.	.	.	.	.	.	.	.	.	.	.
8A\J	.	.	8A\J	.	8dd\	.	.	.	.	.	.	.	.	.	.	.
2B-\	6	.	2B-\	.	4dd\	.	.	.	.	.	.	.	.	.	.	.
.	.	.	.	.	4b-\	.	.	.	.	.	.	.	.	.	.	.
=3	=3	=3	=3	=3	=3	=3	=3	=3	=3	=3	=3	=3	=3	=3	=3	=3
4A\	7	.	4A\	.	4cc\	.	1r	.	.	.	.	.	1ryy	1ryy	1ryy	1ryy
4G\	.	.	4G\	.	4cc\	.	.	.	.	.	.	.	.	.	.	.
4F#X\	6 5	.	4F#X\	.	4cc\	.	.	.	.	.	.	.	.	.	.	.
4D\	.	.	4D\	.	8b-/L	.	.	.	.	.	.	.	.	.	.	.
.	.	.	.	.	8a/J	.	.	.	.	.	.	.	.	.	.	.
=4	=4	=4	=4	=4	=4	=4	=4	=4	=4	=4	=4	=4	=4	=4	=4	=4
*	*	*	*	*	*	*	*2\right	*	*	*	*	*	*	*	*	*
2G\	.	.	2G\	.	4b-/	.	2gg\	.	.	.	.	.	1ryy	1ryy	1ryy	1ryy
.	.	.	.	.	4g/	.	.	.	.	.	.	.	.	.	.	.
.	.	.	.	.	.	.	16qqgg\LL	.	.	.	.	.	.	.	.	.
.	.	.	.	.	.	.	16qqaa\JJ	.	.	.	.	.	.	.	.	.
2r	.	.	2r	.	[2gg\	.	2bb-\	.	.	.	.	.	.	.	.	.
=5	=5	=5	=5	=5	=5	=5	=5	=5	=5	=5	=5	=5	=5	=5	=5	=5
!LO:TX:a:t=2.:mod=	!	!	!LO:TX:a:t=2.:mod=	!	!	!	!	!	!	!	!	!	!	!	!	!
0r	.	.	0r	.	4gg\]	.	4.aa\	.	00r	.	00r	.	1ryy	1ryy	1ryy	1ryy
.	.	.	.	.	8ff\L	.	.	.	.	.	.	.	.	.	.	.
.	.	.	.	.	8een\J	.	8aa\	.	.	.	.	.	.	.	.	.
.	.	.	.	.	2ff\	.	4aa\	.	.	.	.	.	.	.	.	.
.	.	.	.	.	.	.	4ff\	.	.	.	.	.	.	.	.	.
=6	=6	=6	=6	=6	=6	=6	=6	=6	=6	=6	=6	=6	=6	=6	=6	=6
.	.	.	.	.	4een\	.	4gg\	.	.	.	.	.	1ryy	1ryy	1ryy	1ryy
.	.	.	.	.	4dd\	.	4gg\	.	.	.	.	.	.	.	.	.
.	.	.	.	.	4cc#X\	.	4gg\	.	.	.	.	.	.	.	.	.
.	.	.	.	.	4a/	.	8ff\L	.	.	.	.	.	.	.	.	.
.	.	.	.	.	.	.	8een\J	.	.	.	.	.	.	.	.	.
=7	=7	=7	=7	=7	=7	=7	=7	=7	=7	=7	=7	=7	=7	=7	=7	=7
2d\	.	.	2d\	.	2dd\	.	4ff\	.	.	.	.	.	1ryy	1ryy	1ryy	1ryy
.	.	.	.	.	.	.	4dd\	.	.	.	.	.	.	.	.	.
2e-\	6	.	2e-\	.	4r	.	[2ccc\	.	.	.	.	.	.	.	.	.
.	.	.	.	.	4gg\	.	.	.	.	.	.	.	.	.	.	.
=8	=8	=8	=8	=8	=8	=8	=8	=8	=8	=8	=8	=8	=8	=8	=8	=8
4.d\	7 #	.	4.d\	.	4ff#X\	.	4ccc\]	.	.	.	.	.	1ryy	1ryy	1ryy	1ryy
.	.	.	.	.	8gg\L	.	8bb-\L	.	.	.	.	.	.	.	.	.
8d\	.	.	8d\	.	8ff#\J	.	8aa\J	.	.	.	.	.	.	.	.	.
4d\	6 4	.	4d\	.	[2gg\	.	2bb-\	.	.	.	.	.	.	.	.	.
4B-\	.	.	4B-\	.	.	.	.	.	.	.	.	.	.	.	.	.
=9	=9	=9	=9	=9	=9	=9	=9	=9	=9	=9	=9	=9	=9	=9	=9	=9
4c\	6 5	.	4c\	.	2gg\]	.	1aat	.	00r	.	00r	.	1ryy	1ryy	1ryy	1ryy
4c\	.	.	4c\	.	.	.	.	.	.	.	.	.	.	.	.	.
4c\	+4r 2	.	4c\	.	2ff#X\	.	.	.	.	.	.	.	.	.	.	.
8B-\L	.	.	8B-\L	.	.	.	.	.	.	.	.	.	.	.	.	.
8A\J	.	.	8A\J	.	.	.	.	.	.	.	.	.	.	.	.	.
!LO:LB:g=original	!	!	!	!	!	!	!	!	!	!	!	!	!	!	!	!
=10	=10	=10	=10	=10	=10	=10	=10	=10	=10	=10	=10	=10	=10	=10	=10	=10
4B-\	6	.	4B-\	.	4gg\	.	4gg\	.	.	.	.	.	1ryy	1ryy	1ryy	1ryy
4G\	.	.	4G\	.	2b-/	.	[2.ee-\	.	.	.	.	.	.	.	.	.
4G\	6	.	4G\	.	.	.	.	.	.	.	.	.	.	.	.	.
8F\L	.	.	8F\L	.	8a/L	.	.	.	.	.	.	.	.	.	.	.
8E-\J	.	.	8E-\J	.	8g/J	.	.	.	.	.	.	.	.	.	.	.
!	!	!	!LO:LB:g=original	!	!LO:LB:g=original	!	!	!	!	!	!	!	!	!	!	!
=11	=11	=11	=11	=11	=11	=11	=11	=11	=11	=11	=11	=11	=11	=11	=11	=11
4F\	7	.	4F\	.	4a/	.	8ee-\L]	.	.	.	.	.	1ryy	1ryy	1ryy	1ryy
.	.	.	.	.	.	.	8cc#X\J	.	.	.	.	.	.	.	.	.
4F\	.	.	4F\	.	2a/	.	[2.dd\	.	.	.	.	.	.	.	.	.
4F\	6	.	4F\	.	.	.	.	.	.	.	.	.	.	.	.	.
8E-\L	.	.	8E-\L	.	8g/L	.	.	.	.	.	.	.	.	.	.	.
8D\J	.	.	8D\J	.	8f/J	.	.	.	.	.	.	.	.	.	.	.
=12	=12	=12	=12	=12	=12	=12	=12	=12	=12	=12	=12	=12	=12	=12	=12	=12
4E-\	7	.	4E-\	.	4g/	.	8dd\L]	.	.	.	.	.	1ryy	1ryy	1ryy	1ryy
.	.	.	.	.	.	.	8bn\J	.	.	.	.	.	.	.	.	.
!	!	!	!	!	!	!	!LO:SIC:s=[2.cc	!	!	!	!	!	!	!	!	!
4E-\	.	.	4E-\	.	2g/	.	[2.ccn\	.	.	.	.	.	.	.	.	.
4E-\	6	.	4E-\	.	.	.	.	.	.	.	.	.	.	.	.	.
8D/L	.	.	8D/L	.	8f#X/L	.	.	.	.	.	.	.	.	.	.	.
8C/J	.	.	8C/J	.	8en/J	.	.	.	.	.	.	.	.	.	.	.
=13	=13	=13	=13	=13	=13	=13	=13	=13	=13	=13	=13	=13	=13	=13	=13	=13
2D\	7 #	.	2D/	.	2f#X/	.	4cc\]	.	00r	.	00r	.	1ryy	1ryy	1ryy	1ryy
.	.	.	.	.	.	.	8b-X/L	.	.	.	.	.	.	.	.	.
.	.	.	.	.	.	.	8a/J	.	.	.	.	.	.	.	.	.
!	!	!	!	!	!	!	!LO:LB:g=original	!	!	!	!	!	!	!	!	!
4r	.	.	4r	.	[2g/	.	4b-\	.	.	.	.	.	.	.	.	.
4B-\	6	.	4B-\	.	.	.	4gg\	.	.	.	.	.	.	.	.	.
=14	=14	=14	=14	=14	=14	=14	=14	=14	=14	=14	=14	=14	=14	=14	=14	=14
4c\	6 5	.	4c\	.	2g/]	.	1at	.	.	.	.	.	1ryy	1ryy	1ryy	1ryy
4A\	.	.	4A\	.	.	.	.	.	.	.	.	.	.	.	.	.
4d\	#	.	4d\	.	2f#X/	.	.	.	.	.	.	.	.	.	.	.
4D\	.	.	4D/	.	.	.	.	.	.	.	.	.	.	.	.	.
=15	=15	=15	=15	=15	=15	=15	=15	=15	=15	=15	=15	=15	=15	=15	=15	=15
2F#X\	7 5	.	2F#X\	.	4r	.	4r	.	.	.	.	.	1ryy	1ryy	1ryy	1ryy
.	.	.	.	.	2cc\	.	2ee-\	.	.	.	.	.	.	.	.	.
2r	.	.	2r	.	.	.	.	.	.	.	.	.	.	.	.	.
.	.	.	.	.	8b-/L	.	8dd\L	.	.	.	.	.	.	.	.	.
.	.	.	.	.	8a/J	.	8cc\J	.	.	.	.	.	.	.	.	.
=16	=16	=16	=16	=16	=16	=16	=16	=16	=16	=16	=16	=16	=16	=16	=16	=16
4r	.	.	4r	.	2g/	.	2b-/	.	.	.	.	.	1ryy	1ryy	1ryy	1ryy
4G\	.	.	4G\	.	.	.	.	.	.	.	.	.	.	.	.	.
4d\	#	.	4d\	.	2f#Xt/	.	2at/	.	.	.	.	.	.	.	.	.
4D/	.	.	4D/	.	.	.	.	.	.	.	.	.	.	.	.	.
=17	=17	=17	=17	=17	=17	=17	=17	=17	=17	=17	=17	=17	=17	=17	=17	=17
2F#X\	7 5	.	2F#X\	.	4r	.	4r	.	00r	.	0r	.	1ryy	1ryy	1ryy	1ryy
.	.	.	.	.	2cc\	.	2ee-\	.	.	.	.	.	.	.	.	.
4r	.	.	4r	.	.	.	.	.	.	.	.	.	.	.	.	.
4D/	7 #	.	4D/	.	8b-/L	.	8dd\L	.	.	.	.	.	.	.	.	.
.	.	.	.	.	8a/J	.	8cc\J	.	.	.	.	.	.	.	.	.
=18	=18	=18	=18	=18	=18	=18	=18	=18	=18	=18	=18	=18	=18	=18	=18	=18
4G\	.	.	4G\	.	(8g\L	.	4b-\	.	.	.	.	.	1ryy	1ryy	1ryy	1ryy
.	.	.	.	.	8b-\	.	.	.	.	.	.	.	.	.	.	.
4BB-/	6	.	4BB-/	.	8dd\)	.	4ggT\	.	.	.	.	.	.	.	.	.
.	.	.	.	.	8gg\J|	.	.	.	.	.	.	.	.	.	.	.
4C/	6	.	4C/	.	8ee-\L|	.	4a/	.	.	.	.	.	.	.	.	.
.	.	.	.	.	(8cc\	.	.	.	.	.	.	.	.	.	.	.
4D/	#	.	4D/	.	8b-\	.	4ff#Xt\	.	.	.	.	.	.	.	.	.
.	.	.	.	.	8a\J)	.	.	.	.	.	.	.	.	.	.	.
!LO:LB:g=original	!	!	!	!	!	!	!	!	!	!	!	!	!	!	!	!
=19	=19	=19	=19	=19	=19	=19	=19	=19	=19	=19	=19	=19	=19	=19	=19	=19
*	*	*	*	*	*	*	*	*	*	*	*2\right	*	*	*	*	*
4GG/	.	.	4GG/	.	2b-\	.	2g/	.	.	.	2d\	Ni-	1ryy	1ryy	1ryy	1ryy
!	!	!	!	!LO:DY:t=piano	!	!	!	!	!	!	!	!	!	!	!	!
4G\	.	p	4G\	p	.	.	.	.	.	.	.	.	.	.	.	.
.	.	.	.	.	.	.	.	.	.	.	16qqc/LL	.	.	.	.	.
.	.	.	.	.	.	.	.	.	.	.	16qqd/JJ	.	.	.	.	.
[2c\	.	.	[2c\	.	2r	.	2r	.	.	.	2e-\	-si	.	.	.	.
=20	=20	=20	=20	=20	=20	=20	=20	=20	=20	=20	=20	=20	=20	=20	=20	=20
!	!	!	!	!	!LO:TX:a:t=16.:mod=	!	!LO:TX:a:t=16.:mod=	!	!	!	!	!	!	!	!	!
4c\]	+4r 2	.	4c\]	.	00r	.	00r	.	.	.	4.d\	Do-	1ryy	1ryy	1ryy	1ryy
8B-\L	.	.	8B-\L	.	.	.	.	.	.	.	.	.	.	.	.	.
8A\J	.	.	8A\J	.	.	.	.	.	.	.	8d\	-mi-	.	.	.	.
2B-\	6	.	2B-\	.	.	.	.	.	.	.	4d\	-nus	.	.	.	.
.	.	.	.	.	.	.	.	.	.	.	4B-\	ae-	.	.	.	.
!	!	!	!LO:LB:g=original	!	!	!	!	!	!	!	!	!	!	!	!	!
=21	=21	=21	=21	=21	=21	=21	=21	=21	=21	=21	=21	=21	=21	=21	=21	=21
4A\	7	.	4A\	.	.	.	.	.	1r	.	4c\	-di-	1ryy	1ryy	1ryy	1ryy
4G\	.	.	4G\	.	.	.	.	.	.	.	4c\	-fi-	.	.	.	.
.	.	.	.	.	.	.	.	.	.	.	8qqd/	.	.	.	.	.
4F#X\	6 5	.	4F#X\	.	.	.	.	.	.	.	4c\	-ca-	.	.	.	.
4D\	.	.	4D\	.	.	.	.	.	.	.	8B-\	-ve-	.	.	.	.
.	.	.	.	.	.	.	.	.	.	.	8A\	-rit	.	.	.	.
=22	=22	=22	=22	=22	=22	=22	=22	=22	=22	=22	=22	=22	=22	=22	=22	=22
*	*	*	*	*	*	*	*	*	*2\right	*	*	*	*	*	*	*
!	!	!	!	!	!	!	!	!	!LO:TX:a:i:t=Solo.:mod=	!	!	!	!	!	!	!
4GG/	.	.	4GG/	.	.	.	.	.	2G\	Ni-	4B-\	do-	1ryy	1ryy	1ryy	1ryy
!	!	!	!	!	!	!	!	!	!	!	!	!LO:MO:mod=-mum	!	!	!	!
8G\L	.	.	8G\L	.	.	.	.	.	.	.	4G/	-mu(m)	.	.	.	.
8Fn\J	.	.	8Fn\J	.	.	.	.	.	.	.	.	.	.	.	.	.
4En\	5	.	4En\	.	.	.	.	.	2B-\	-si	2g\	in	.	.	.	.
4D\	.	.	4D\	.	.	.	.	.	.	.	.	.	.	.	.	.
=23	=23	=23	=23	=23	=23	=23	=23	=23	=23	=23	=23	=23	=23	=23	=23	=23
!	!	!	!	!	!	!	!	!	!	!	!LO:SIC:s=(4g	!	!	!	!	!
4C#X/	6 5	.	4C#X/	.	.	.	.	.	4.A\	Do-	4g\	va-	1ryy	1ryy	1ryy	1ryy
!	!	!	!	!	!	!	!	!	!	!	!LO:SIC:s=8fL	!	!	!	!	!
4AA/	.	.	4AA/	.	.	.	.	.	.	.	(8f\L	.	.	.	.	.
.	.	.	.	.	.	.	.	.	8A\	-mi-	8en\J)	.	.	.	.	.
!	!	!	!	!	!	!	!	!	!	!	!	!LO:MO:mod=-num	!	!	!	!
[2D/	.	.	[2D/	.	.	.	.	.	4A\	-nus	4f\	-nu(m)	.	.	.	.
.	.	.	.	.	.	.	.	.	4F\	cu-	4f\	la-	.	.	.	.
=24	=24	=24	=24	=24	=24	=24	=24	=24	=24	=24	=24	=24	=24	=24	=24	=24
2D/]	4 n2r	.	2D/]	.	00r	.	00r	.	4G\	-sto-	2.en\	-bo-	1ryy	1ryy	1ryy	1ryy
.	.	.	.	.	.	.	.	.	8G\	-di-	.	.	.	.	.	.
.	.	.	.	.	.	.	.	.	8G\	-e-	.	.	.	.	.	.
2C#X/	6 5	.	2C#X/	.	.	.	.	.	4G\	-rit	.	.	.	.	.	.
.	.	.	.	.	.	.	.	.	8F\	ci-	4e\	-ra-	.	.	.	.
.	.	.	.	.	.	.	.	.	8En\	-vi-	.	.	.	.	.	.
=25	=25	=25	=25	=25	=25	=25	=25	=25	=25	=25	=25	=25	=25	=25	=25	=25
2D\	.	.	2D\	.	.	.	.	.	4F\	-ta-	4d\	-ve-	1ryy	1ryy	1ryy	1ryy
.	.	.	.	.	.	.	.	.	4D/	-tem	8A\L	-runt	.	.	.	.
.	.	.	.	.	.	.	.	.	.	.	8B-\J	.	.	.	.	.
2E-X\	6	.	2E-X\	.	.	.	.	.	4G\	fru-	4c\	qui	.	.	.	.
.	.	.	.	.	.	.	.	.	4G\	-stra	4c\	ae-	.	.	.	.
!	!	!	!	!	!	!	!	!	!	!	!LO:LB:g=original	!	!	!	!	!
=26	=26	=26	=26	=26	=26	=26	=26	=26	=26	=26	=26	=26	=26	=26	=26	=26
4.D/	7 #	.	4.D/	.	.	.	.	.	4.F#X\	vi-	4c\	-di-	1ryy	1ryy	1ryy	1ryy
.	.	.	.	.	.	.	.	.	.	.	8B-\L	-fi-	.	.	.	.
8D/	.	.	8D/	.	.	.	.	.	8F#\	-gi-	8A\J	.	.	.	.	.
4D/	6 4	.	4D/	.	.	.	.	.	4G\	-lat	2B-\	-cant	.	.	.	.
4BB-/	.	.	4BB-/	.	.	.	.	.	8G\	qui	.	.	.	.	.	.
.	.	.	.	.	.	.	.	.	8G\	cu-	.	.	.	.	.	.
=27	=27	=27	=27	=27	=27	=27	=27	=27	=27	=27	=27	=27	=27	=27	=27	=27
4C/	6 5	.	4C/	.	.	.	.	.	4G\	-sto-	1At	e-	1ryy	1ryy	1ryy	1ryy
4C/	.	.	4C/	.	.	.	.	.	4G\	-dit	.	.	.	.	.	.
!	!	!	!	!	!	!	!	!	!LO:LB:g=original	!	!	!	!	!	!	!
4C/	6 +4r	.	4C/	.	.	.	.	.	2F#X\	e-	.	.	.	.	.	.
8BB-/L	.	.	8BB-/L	.	.	.	.	.	.	.	.	.	.	.	.	.
8AA/J	.	.	8AA/J	.	.	.	.	.	.	.	.	.	.	.	.	.
=28	=28	=28	=28	=28	=28	=28	=28	=28	=28	=28	=28	=28	=28	=28	=28	=28
4BB-/	6	.	4BB-/	.	00r	.	00r	.	4G\	-am	4G/	-am	1ryy	1ryy	1ryy	1ryy
4G\	.	.	4G\	.	.	.	.	.	2B-\	va-	4r	.	.	.	.	.
!LO:LB:g=original	!	!	!	!	!	!	!	!	!	!	!	!	!	!	!	!
4G\	6	.	4G\	.	.	.	.	.	.	.	2e-\	cum	.	.	.	.
8F\L	.	.	8F\L	.	.	.	.	.	8A\L	-num	.	.	.	.	.	.
8E-\J	.	.	8E-\J	.	.	.	.	.	8G\J	.	.	.	.	.	.	.
=29	=29	=29	=29	=29	=29	=29	=29	=29	=29	=29	=29	=29	=29	=29	=29	=29
2D\	7	.	2D\	.	.	.	.	.	2A\	est	4.e-\	de-	1ryy	1ryy	1ryy	1ryy
.	.	.	.	.	.	.	.	.	.	.	8d\	-de-	.	.	.	.
[2B-\	3	.	[2B-\	.	.	.	.	.	2r	.	4d\	-rit	.	.	.	.
.	.	.	.	.	.	.	.	.	.	.	8c\L	di-	.	.	.	.
.	.	.	.	.	.	.	.	.	.	.	8B-\J	.	.	.	.	.
=30	=30	=30	=30	=30	=30	=30	=30	=30	=30	=30	=30	=30	=30	=30	=30	=30
4B-\]	5 2	.	4B-\]	.	.	.	.	.	4r	.	2c\	-le-	1ryy	1ryy	1ryy	1ryy
4A\	.	.	4A\	.	.	.	.	.	8c\	vo-	.	.	.	.	.	.
.	.	.	.	.	.	.	.	.	8c\	-bis	.	.	.	.	.	.
4A\	6	.	4A\	.	.	.	.	.	4c\	an-	2f\	-ctis	.	.	.	.
8G\L	.	.	8G\L	.	.	.	.	.	8B-\L	-te	.	.	.	.	.	.
8F\J	.	.	8F\J	.	.	.	.	.	8A\J	.	.	.	.	.	.	.
=31	=31	=31	=31	=31	=31	=31	=31	=31	=31	=31	=31	=31	=31	=31	=31	=31
2G\	7	.	2G\	.	.	.	.	.	4B-\	lu-	4f\	su-	1ryy	1ryy	1ryy	1ryy
.	.	.	.	.	.	.	.	.	4B-\	-cem	4e-\	-is	.	.	.	.
[2c\	3	.	[2c\	.	.	.	.	.	2r	.	4e-\	som-	.	.	.	.
.	.	.	.	.	.	.	.	.	.	.	8d\L	-num	.	.	.	.
.	.	.	.	.	.	.	.	.	.	.	8c\J	.	.	.	.	.
=32	=32	=32	=32	=32	=32	=32	=32	=32	=32	=32	=32	=32	=32	=32	=32	=32
4c\]	5 2	.	4c\]	.	00r	.	00r	.	4r	.	2d\	ec-	1ryy	1ryy	1ryy	1ryy
4B-\	.	.	4B-\	.	.	.	.	.	2B-\	sur-	.	.	.	.	.	.
4B-\	6	.	4B-\	.	.	.	.	.	.	.	4g\	-ce	.	.	.	.
8A\L	.	.	8A\L	.	.	.	.	.	8A\L	-ge-	4g\	he-	.	.	.	.
8G\J	.	.	8G\J	.	.	.	.	.	8G\J	.	.	.	.	.	.	.
!	!	!	!LO:LB:g=original	!	!	!	!	!	!	!	!	!	!	!	!	!
=33	=33	=33	=33	=33	=33	=33	=33	=33	=33	=33	=33	=33	=33	=33	=33	=33
2A\	7	.	2A\	.	.	.	.	.	2A\	-re	4g\	-re-	1ryy	1ryy	1ryy	1ryy
.	.	.	.	.	.	.	.	.	.	.	8f\L	-di-	.	.	.	.
.	.	.	.	.	.	.	.	.	.	.	8e-\J	.	.	.	.	.
2d\	3	.	2d\	.	.	.	.	.	4.d\	sur-	2f\	-tas	.	.	.	.
.	.	.	.	.	.	.	.	.	8d\	-gi-	.	.	.	.	.	.
=34	=34	=34	=34	=34	=34	=34	=34	=34	=34	=34	=34	=34	=34	=34	=34	=34
2G\	7 n	.	2G\	.	.	.	.	.	4G\	-te	(4f\	Do-	1ryy	1ryy	1ryy	1ryy
.	.	.	.	.	.	.	.	.	4G\	post-	8e-\)	.	.	.	.	.
.	.	.	.	.	.	.	.	.	.	.	8d\	-mi-	.	.	.	.
!	!	!	!	!	!	!	!	!	!	!	!LO:SIC:s=2e-	!	!	!	!	!
!LO:SIC:s=8cL|	!	!	!	!	!	!	!	!	!	!LO:MO:mod=-quam	!LO:TX:t=P:problem=♭ above	!	!	!	!	!
8c\L	3	.	8c\L|	.	.	.	.	.	4c\	-qua(m)	2e-X\	-ni	.	.	.	.
8B-\|	.	.	8B-\|	.	.	.	.	.	.	.	.	.	.	.	.	.
8A-X\|	.	.	8A-X\|	.	.	.	.	.	4c\	se-	.	.	.	.	.	.
8G\J|	.	.	8G\J|	.	.	.	.	.	.	.	.	.	.	.	.	.
!	!	!	!	!	!	!	!	!	!	!	!LO:LB:g=original	!	!	!	!	!
=35	=35	=35	=35	=35	=35	=35	=35	=35	=35	=35	=35	=35	=35	=35	=35	=35
1F#X	7	.	1F#X	.	.	.	.	.	4.F#X\	-de-	(2e-\	fi-	1ryy	1ryy	1ryy	1ryy
.	.	.	.	.	.	.	.	.	8F#\	-ri-	.	.	.	.	.	.
.	6	.	.	.	.	.	.	.	4F#\	-tis	8d\)	.	.	.	.	.
.	5	.	.	.	.	.	.	.	.	.	8c\	-li-	.	.	.	.
!	!	!	!	!	!	!	!	!	!	!	!	!LO:MO:mod=-i	!	!	!	!
.	.	.	.	.	.	.	.	.	4F#\	qui	4c\	-j	.	.	.	.
!	!	!	!	!	!	!	!	!	!LO:LB:g=original	!	!	!	!	!	!	!
=36	=36	=36	=36	=36	=36	=36	=36	=36	=36	=36	=36	=36	=36	=36	=36	=36
4G\	n	.	4G\	.	4r	.	4r	.	4G\	man-	(2Bn\	mer-	1ryy	1ryy	1ryy	1ryy
!	!	!	!	!	!	!	!	!LO:MO:null:mod=p	!	!	!	!	!	!	!	!
4Fn\	n4r 2	.	4Fn\	.	4bn\	p	4dd\	.	4Fn\	-du-	.	.	.	.	.	.
!	!	!	!	!	!	!	!	!LO:MO:mod=.	!	!	!	!	!	!	!	!
4E-\	6	.	4E-\	.	4cc\	.	4ee-\	p	4E-\	-ca-	4c\)	.	.	.	.	.
4D\	n6r	.	4D\	.	4dd\	.	4ff\	.	4D/	-tis	4d\	-ces	.	.	.	.
=37	=37	=37	=37	=37	=37	=37	=37	=37	=37	=37	=37	=37	=37	=37	=37	=37
4C\	.	.	4C/	.	4ee-\	.	4gg\	.	(>4C/	pa-	(4e-\	fru-	1ryy	1ryy	1ryy	1ryy
4D\	.	.	4D/	.	4dd\	.	4ff\	.	4D/)	.	4d\)	.	.	.	.	.
4E-\	6	.	4E-/	.	[2cc\	.	[2ee-\	.	4E-\	-nem	2c\	-ctus	.	.	.	.
4F\	.	.	4F/	.	.	.	.	.	4F\	do-	.	.	.	.	.	.
!LO:LB:g=original	!	!	!	!	!	!	!	!	!	!	!	!	!	!	!	!
=38	=38	=38	=38	=38	=38	=38	=38	=38	=38	=38	=38	=38	=38	=38	=38	=38
4G\	6 4	.	4G\	.	2cc\]	.	2ee-\]	.	(2G\	-lo-	2c\	ven-	1ryy	1ryy	1ryy	1ryy
4F\	.	.	4F\	.	.	.	.	.	.	.	.	.	.	.	.	.
!	!	!	!	!	!LO:LB:g=original	!	!	!	!	!	!	!	!	!	!	!
4G\	5 n	.	4G\	.	2bnt\	.	2ddt\	.	2GG/)	.	2Bnt\	.	.	.	.	.
4GG/	.	.	4GG/	.	.	.	.	.	.	.	.	.	.	.	.	.
=39	=39	=39	=39	=39	=39	=39	=39	=39	=39	=39	=39	=39	=39	=39	=39	=39
2BBn/	-7r 5	.	2BBn/	.	4r	.	4r	.	2BBn/	-ris	2d\	-tris	1ryy	1ryy	1ryy	1ryy
.	.	.	.	.	2ff\	.	2aa-X\	.	.	.	.	.	.	.	.	.
4r	.	.	4r	.	.	.	.	.	4r	.	4r	.	.	.	.	.
4G\	7 n	.	4G\	.	8ee-\L	.	8gg\L	.	4G\	do-	4Bn\	do-	.	.	.	.
.	.	.	.	.	8dd\J	.	8ff\J	.	.	.	.	.	.	.	.	.
=40	=40	=40	=40	=40	=40	=40	=40	=40	=40	=40	=40	=40	=40	=40	=40	=40
!	!	!	!	!	!	!	!	!	!LO:SIC:s=(2c	!	!LO:SIC:s=(2c	!	!	!	!	!
4c\	.	.	4c\	.	2cc\	.	2ee-\	.	2c\	-lo-	2c\	-lo-	1ryy	1ryy	1ryy	1ryy
4C/	.	.	4C/	.	.	.	.	.	.	.	.	.	.	.	.	.
!	!	!	!	!	!LO:MO:null:mod=8ccqq@	!	!	!	!	!	!	!	!	!	!	!
.	.	.	.	.	.	.	8qqee-/	.	.	.	.	.	.	.	.	.
!	!	!	!	!	!	!	!	!	!LO:SIC:s=2G)	!	!LO:SIC:s=2Bt)	!	!	!	!	!
4G\	n	.	4G\	.	2bnt\	.	2ddt\	.	2G\	.	2Bnt\	.	.	.	.	.
4GG/	.	.	4GG/	.	.	.	.	.	.	.	.	.	.	.	.	.
!	!	!	!	!	!	!	!LO:LB:g=original	!	!	!	!	!	!	!	!	!
=41	=41	=41	=41	=41	=41	=41	=41	=41	=41	=41	=41	=41	=41	=41	=41	=41
2BBn/	-7r	.	2BBn/	.	4r	.	4r	.	2Bn\	-ris	2d\	-ris	1ryy	1ryy	1ryy	1ryy
.	.	.	.	.	2ff\	.	2aa-X\	.	.	.	.	.	.	.	.	.
4r	.	.	4r	.	.	.	.	.	4r	.	4r	.	.	.	.	.
4G\	7 n	.	4G\	.	8ee-\L	.	8gg\L	.	4G\	do-	8e-\L	do-	.	.	.	.
.	.	.	.	.	8dd\J	.	8ff\J	.	.	.	8f\J	.	.	.	.	.
=42	=42	=42	=42	=42	=42	=42	=42	=42	=42	=42	=42	=42	=42	=42	=42	=42
!	!	!	!	!	!	!	!	!	!LO:SIC:s=(4c	!LO:MO:null:mod=-lo-	!	!	!	!	!	!
4C/	.	.	4C/	.	2cc\	.	2ee-\	.	4c\	.	(2e-\	-lo-	1ryy	1ryy	1ryy	1ryy
4E-\	.	.	4E-\	.	.	.	.	.	4E-\	.	.	.	.	.	.	.
!	!	!	!	!	!	!	!	!	!	!LO:MO:mod=.	!	!	!	!	!	!
4G\	n	.	4G\	.	2bnt\	.	2ddt\	.	4G\	-lo-	2dt\)	.	.	.	.	.
!	!	!	!	!	!	!	!	!	!LO:SIC:s=4GG)	!	!	!	!	!	!	!
4GG/	.	.	4GG/	.	.	.	.	.	4GG/	.	.	.	.	.	.	.
=43	=43	=43	=43	=43	=43	=43	=43	=43	=43	=43	=43	=43	=43	=43	=43	=43
!	!	!LO:MO:mod=!LO&colon;DY&colon;ed=brack	!	!	!	!	!	!	!	!	!	!	!	!	!	!
!	!	!null	!	!	!	!	!	!	!	!	!	!	!	!	!	!
!	!	!LO:MO:null:mod=f	!	!	!	!	!	!	!	!	!	!LO:MO:mod=-ris	!	!	!	!
2C/	.	.	2C/	f	2gg\	f	2cc\	.	2C/	-ris	2c\	-ris.	1ryy	1ryy	1ryy	1ryy
.	.	.	.	.	16qqff\LL	.	.	.	.	.	.	.	.	.	.	.
.	.	.	.	.	16qqgg\JJ	.	.	.	.	.	.	.	.	.	.	.
[2F\	-	.	[2F\	.	2aa-X\	.	2r	.	2r	.	2r	.	.	.	.	.
=44	=44	=44	=44	=44	=44	=44	=44	=44	=44	=44	=44	=44	=44	=44	=44	=44
!	!	!	!	!	!	!	!LO:TX:a:t=2.:mod=	!	!LO:TX:a:t=14.:mod=	!	!LO:TX:a:t=13.:mod=	!	!	!	!	!
4F\]	n4r 2	.	4F\]	.	4.gg\	.	0r	.	00r	.	00r	.	1ryy	1ryy	1ryy	1ryy
8E-\L	.	.	8E-\L	.	.	.	.	.	.	.	.	.	.	.	.	.
8D\J	.	.	8D\J	.	8gg\	.	.	.	.	.	.	.	.	.	.	.
2E-\	6	.	2E-\	.	4gg\	.	.	.	.	.	.	.	.	.	.	.
.	.	.	.	.	4ee-\	.	.	.	.	.	.	.	.	.	.	.
=45	=45	=45	=45	=45	=45	=45	=45	=45	=45	=45	=45	=45	=45	=45	=45	=45
4D/	7	.	4D/	.	4ff\	.	.	.	.	.	.	.	1ryy	1ryy	1ryy	1ryy
4C/	.	.	4C/	.	4ff\	.	.	.	.	.	.	.	.	.	.	.
4BBn/	6 5	.	4BBn/	.	4ff\	.	.	.	.	.	.	.	.	.	.	.
4GG/	.	.	4GG/	.	8ee-\L	.	.	.	.	.	.	.	.	.	.	.
.	.	.	.	.	8dd\J	.	.	.	.	.	.	.	.	.	.	.
=46	=46	=46	=46	=46	=46	=46	=46	=46	=46	=46	=46	=46	=46	=46	=46	=46
!	!	!	!	!	!	!	!	!LO:DY:a:t=for&colon;	!	!	!	!	!	!	!	!
1C	.	.	1C	.	4ee-\	.	2cc\	f	.	.	.	.	1ryy	1ryy	1ryy	1ryy
.	.	.	.	.	4c/	.	.	.	.	.	.	.	.	.	.	.
.	.	.	.	.	.	.	16qqcc\LL	.	.	.	.	.	.	.	.	.
.	.	.	.	.	.	.	16qqdd\JJ	.	.	.	.	.	.	.	.	.
.	.	.	.	.	[2cc\	.	2ee-\	.	.	.	.	.	.	.	.	.
!LO:LB:g=original	!	!	!LO:LB:g=original	!	!	!	!	!	!	!	!	!	!	!	!	!
=47	=47	=47	=47	=47	=47	=47	=47	=47	=47	=47	=47	=47	=47	=47	=47	=47
1G	4	.	1G	.	4cc\]	.	4.dd\	.	.	.	.	.	1ryy	1ryy	1ryy	1ryy
!	!	!	!	!	!LO:SIC:s=8b-L	!	!	!	!	!	!	!	!	!	!	!
.	.	.	.	.	8b-X/L	.	.	.	.	.	.	.	.	.	.	.
.	.	.	.	.	8a/J	.	8dd\	.	.	.	.	.	.	.	.	.
.	-	.	.	.	2b-/	.	4dd\	.	.	.	.	.	.	.	.	.
.	.	.	.	.	.	.	4b-\	.	.	.	.	.	.	.	.	.
=48	=48	=48	=48	=48	=48	=48	=48	=48	=48	=48	=48	=48	=48	=48	=48	=48
2c\	6	.	2c\	.	4a/	.	4cc\	.	00r	.	00r	.	1ryy	1ryy	1ryy	1ryy
.	.	.	.	.	4g/	.	4cc\	.	.	.	.	.	.	.	.	.
2d\	#	.	2d\	.	4f#X/	.	4cc\	.	.	.	.	.	.	.	.	.
.	.	.	.	.	4d/	.	8b-/L	.	.	.	.	.	.	.	.	.
.	.	.	.	.	.	.	8an/J	.	.	.	.	.	.	.	.	.
=49	=49	=49	=49	=49	=49	=49	=49	=49	=49	=49	=49	=49	=49	=49	=49	=49
2G\	.	.	2G\	.	4r	.	4b-/	.	.	.	.	.	1ryy	1ryy	1ryy	1ryy
.	.	.	.	.	4b-\	.	4g/	.	.	.	.	.	.	.	.	.
2A-X\	6	.	2A-X\	.	4cc\	.	[2ff\	.	.	.	.	.	.	.	.	.
.	.	.	.	.	4cc\	.	.	.	.	.	.	.	.	.	.	.
=50	=50	=50	=50	=50	=50	=50	=50	=50	=50	=50	=50	=50	=50	=50	=50	=50
4.G\	7 n	.	4.G\	.	4bn\	.	4ff\]	.	.	.	.	.	1ryy	1ryy	1ryy	1ryy
.	.	.	.	.	8cc\L	.	8ee-\L	.	.	.	.	.	.	.	.	.
8G\	.	.	8G\	.	8b\J	.	8dd\J	.	.	.	.	.	.	.	.	.
4G\	6 4	.	4G\	.	[2cc\	.	2ee-\	.	.	.	.	.	.	.	.	.
4E-\	.	.	4E-\	.	.	.	.	.	.	.	.	.	.	.	.	.
=51	=51	=51	=51	=51	=51	=51	=51	=51	=51	=51	=51	=51	=51	=51	=51	=51
4F\	6 5	.	4F\	.	2cc\]	.	1ddt	.	.	.	.	.	1ryy	1ryy	1ryy	1ryy
4F\	.	.	4F\	.	.	.	.	.	.	.	.	.	.	.	.	.
!	!	!	!	!	!LO:LB:g=original	!	!	!	!	!	!	!	!	!	!	!
4F\	n4r 2	.	4F\	.	2bnt\	.	.	.	.	.	.	.	.	.	.	.
8E-\L	.	.	8E-\L	.	.	.	.	.	.	.	.	.	.	.	.	.
8D\J	.	.	8D\J	.	.	.	.	.	.	.	.	.	.	.	.	.
=52	=52	=52	=52	=52	=52	=52	=52	=52	=52	=52	=52	=52	=52	=52	=52	=52
4E-\	6	.	4E-\	.	4cc\	.	4cc\	.	00r	.	00r	.	1ryy	1ryy	1ryy	1ryy
4c\	.	.	4c\	.	2ee-\	.	[2.aa-X\	.	.	.	.	.	.	.	.	.
4c\	-6	.	4c\	.	.	.	.	.	.	.	.	.	.	.	.	.
8B-\L	.	.	8B-\L	.	8dd\L	.	.	.	.	.	.	.	.	.	.	.
8A-X\J	.	.	8A-X\J	.	8cc\J	.	.	.	.	.	.	.	.	.	.	.
=53	=53	=53	=53	=53	=53	=53	=53	=53	=53	=53	=53	=53	=53	=53	=53	=53
4B-\	-7r	.	4B-\	.	4dd\	.	8aa-\L]	.	.	.	.	.	1ryy	1ryy	1ryy	1ryy
.	.	.	.	.	.	.	8ff#X\J	.	.	.	.	.	.	.	.	.
.	.	.	.	.	.	.	8qqff#/	.	.	.	.	.	.	.	.	.
4B-\	.	.	4B-\	.	2dd\	.	[2.gg\	.	.	.	.	.	.	.	.	.
4B-\	6	.	4B-\	.	.	.	.	.	.	.	.	.	.	.	.	.
8A-X\L	.	.	8A-X\L	.	8cc\L	.	.	.	.	.	.	.	.	.	.	.
8G\J	.	.	8G\J	.	8b-\J	.	.	.	.	.	.	.	.	.	.	.
=54	=54	=54	=54	=54	=54	=54	=54	=54	=54	=54	=54	=54	=54	=54	=54	=54
4A-X\	7	.	4A-X\	.	4cc\	.	8gg\L]	.	.	.	.	.	1ryy	1ryy	1ryy	1ryy
.	.	.	.	.	.	.	8een\J	.	.	.	.	.	.	.	.	.
!	!	!	!	!	!	!	!LO:SIC:s=[2.ff	!	!	!	!	!	!	!	!	!
4A-\	.	.	4A-\	.	2cc\	.	[2.ffn\	.	.	.	.	.	.	.	.	.
4A-\	6	.	4A-\	.	.	.	.	.	.	.	.	.	.	.	.	.
8G\L	.	.	8G\L	.	8bn/L	.	.	.	.	.	.	.	.	.	.	.
8F\J	.	.	8F\J	.	8a/J	.	.	.	.	.	.	.	.	.	.	.
!	!	!	!	!	!	!	!LO:LB:g=original	!	!	!	!	!	!	!	!	!
=55	=55	=55	=55	=55	=55	=55	=55	=55	=55	=55	=55	=55	=55	=55	=55	=55
2G\	7 n	.	2G\	.	2bn\	.	4ff\]	.	.	.	.	.	1ryy	1ryy	1ryy	1ryy
.	.	.	.	.	.	.	8ee-X\L	.	.	.	.	.	.	.	.	.
.	.	.	.	.	.	.	8dd\J	.	.	.	.	.	.	.	.	.
2c\	.	.	2c\	.	[2cc\	.	4ee-\	.	.	.	.	.	.	.	.	.
.	.	.	.	.	.	.	4ccc\	.	.	.	.	.	.	.	.	.
!LO:LB:g=original	!	!	!	!	!	!	!	!	!	!	!	!	!	!	!	!
=56	=56	=56	=56	=56	=56	=56	=56	=56	=56	=56	=56	=56	=56	=56	=56	=56
4F\	6 5	.	4F\	.	2cc\]	.	1ddt	.	0r	.	1r	.	1ryy	1ryy	1ryy	1ryy
4D/	.	.	4D/	.	.	.	.	.	.	.	.	.	.	.	.	.
4G\	n	.	4G\	.	2bnt\	.	.	.	.	.	.	.	.	.	.	.
4GG/	.	.	4GG/	.	.	.	.	.	.	.	.	.	.	.	.	.
!	!	!	!	!	!	!	!	!	!	!	!LO:LB:g=original	!	!	!	!	!
=57	=57	=57	=57	=57	=57	=57	=57	=57	=57	=57	=57	=57	=57	=57	=57	=57
2C/	.	.	2C/	.	2cc\	.	2cc\	.	.	.	4r	.	1ryy	1ryy	1ryy	1ryy
.	.	.	.	.	.	.	.	.	.	.	4g\	si-	.	.	.	.
.	.	.	.	.	.	.	.	.	.	.	8qqf/	.	.	.	.	.
4r	.	.	4r	.	2r	.	2r	.	.	.	4e-\	-cut	.	.	.	.
.	.	.	.	.	.	.	.	.	.	.	8qqd/	.	.	.	.	.
4E-\	6	p	4E-\	p	.	.	.	.	.	.	4c\	sag-	.	.	.	.
!	!	!	!	!	!	!	!	!	!LO:LB:g=original	!	!	!	!	!	!	!
=58	=58	=58	=58	=58	=58	=58	=58	=58	=58	=58	=58	=58	=58	=58	=58	=58
.	.	.	.	.	.	.	.	.	.	.	8qqB-/	.	.	.	.	.
!	!	!	!	!	!LO:TX:a:t=2.:mod=	!	!LO:TX:a:t=2.:mod=	!	!	!	!	!	!	!	!	!
2.F\	n	.	2.F\	.	0r	.	0r	.	4r	.	2A/	-git-	1ryy	1ryy	1ryy	1ryy
.	.	.	.	.	.	.	.	.	8c\	i-	.	.	.	.	.	.
.	.	.	.	.	.	.	.	.	8c\	-ta	.	.	.	.	.	.
.	.	.	.	.	.	.	.	.	8A\	fi-	4A/	-tae	.	.	.	.
.	.	.	.	.	.	.	.	.	8A\	-li-	.	.	.	.	.	.
!	!	!	!	!	!	!	!	!	!	!LO:MO:mod=-i	!	!	!	!	!	!
4E-\	4 2	.	4E-\	.	.	.	.	.	4F\	-j	4A/	in	.	.	.	.
=59	=59	=59	=59	=59	=59	=59	=59	=59	=59	=59	=59	=59	=59	=59	=59	=59
4D\	6	.	4D\	.	.	.	.	.	(4F\	ex-	2B-\	ma-	1ryy	1ryy	1ryy	1ryy
4G\	.	.	4G\	.	.	.	.	.	2B-\)	.	.	.	.	.	.	.
4E-\	6 5	.	4E-\	.	.	.	.	.	.	.	4c\	-nu	.	.	.	.
4F\	7	.	4F\	.	.	.	.	.	4A\	-cuſ-	8d\L	po-	.	.	.	.
.	.	.	.	.	.	.	.	.	.	.	8e-\J	.	.	.	.	.
!	!	!	!LO:LB:g=original	!	!	!	!	!	!	!	!	!	!	!	!	!
=60	=60	=60	=60	=60	=60	=60	=60	=60	=60	=60	=60	=60	=60	=60	=60	=60
!	!	!	!	!	!	!	!	!	!	!	!LO:TUP:problem=klamra łukowa	!	!	!	!	!
2BB-/	.	.	2BB-/	.	8r	.	8r	.	4B-\	-so-	12e-\L	-ten-	1ryy	1ryy	1ryy	1ryy
.	.	.	.	.	.	.	.	.	.	.	12d\	.	.	.	.	.
.	.	.	.	.	8b-\L	.	8dd\L	.	.	.	.	.	.	.	.	.
.	.	.	.	.	.	.	.	.	.	.	12c\J	.	.	.	.	.
.	.	.	.	.	8cc\	.	8ee-\	.	4BB-/	-rum	4B-\	-tis	.	.	.	.
.	.	.	.	.	8dd\J	.	8ff\J	.	.	.	.	.	.	.	.	.
2r	.	.	2r	.	8ee-\L	.	8gg\L	.	2r	.	2r	.	.	.	.	.
.	.	.	.	.	8ff\	.	8aa\	.	.	.	.	.	.	.	.	.
.	.	.	.	.	8gg\	.	8bb-\	.	.	.	.	.	.	.	.	.
.	.	.	.	.	8aa\J	.	8ccc\J	.	.	.	.	.	.	.	.	.
=61	=61	=61	=61	=61	=61	=61	=61	=61	=61	=61	=61	=61	=61	=61	=61	=61
!	!	!	!	!	!	!	!	!	!LO:TX:a:t=1.:mod=	!	!	!	!	!	!	!
4r	.	.	4r	.	[1bb-	p	4ddd\	.	1r	.	4r	.	1ryy	1ryy	1ryy	1ryy
4BB-/	.	.	4BB-/	.	.	.	4ddd\	p	.	.	4d\	Be-	.	.	.	.
4F\	.	.	4F\	.	.	.	4ddd\	.	.	.	4d\	-a-	.	.	.	.
4B-\	.	.	4B-\	.	.	.	8ccc\L	.	.	.	4d\	-tus	.	.	.	.
.	.	.	.	.	.	.	8bb-\J	.	.	.	.	.	.	.	.	.
=62	=62	=62	=62	=62	=62	=62	=62	=62	=62	=62	=62	=62	=62	=62	=62	=62
.	.	.	.	.	.	.	.	.	.	.	8qqd/	.	.	.	.	.
2.F\	4	.	2.F\	.	4bb-\]	.	[1ccc	.	4r	.	1c	vir	1ryy	1ryy	1ryy	1ryy
.	.3	.	.	.	4aa\	.	.	.	4F\	non	.	.	.	.	.	.
.	.	.	.	.	4aa\	.	.	.	4F\	con-	.	.	.	.	.	.
4A\	6	.	4A\	.	8gg\L	.	.	.	4A\	-fun-	.	.	.	.	.	.
.	.	.	.	.	8ff\J	.	.	.	.	.	.	.	.	.	.	.
=63	=63	=63	=63	=63	=63	=63	=63	=63	=63	=63	=63	=63	=63	=63	=63	=63
4G\	4	.	4G\	.	[1gg	.	4ccc\]	.	2G\	-de-	4c\	qui	1ryy	1ryy	1ryy	1ryy
4GG/	3	.	4GG/	.	.	.	4bb-\	.	.	.	4B-\	im-	.	.	.	.
4D/	.	.	4D/	.	.	.	4bb-\	.	2G\	-tur	4B-\	-ple-	.	.	.	.
4G\	5	.	4G\	.	.	.	8aa\L	.	.	.	4B-\	-vit	.	.	.	.
.	6 4	.	.	.	.	.	8gg\J	.	.	.	.	.	.	.	.	.
=64	=64	=64	=64	=64	=64	=64	=64	=64	=64	=64	=64	=64	=64	=64	=64	=64
2.d\	3	.	2.d\	.	4gg\]	.	[1aa-X	.	4r	.	2.a-X\	de-	1ryy	1ryy	1ryy	1ryy
.	.	.	.	.	4ff\	.	.	.	8D/	cum	.	.	.	.	.	.
.	.	.	.	.	.	.	.	.	8D/	lo-	.	.	.	.	.	.
.	.	.	.	.	4ff\	.	.	.	4D/	-que-	.	.	.	.	.	.
4F\	6 -3	.	4F\	.	8ee-\L	.	.	.	4F\	-tur	4a-\	-si-	.	.	.	.
.	.	.	.	.	8dd\J	.	.	.	.	.	.	.	.	.	.	.
!	!	!	!	!	!	!	!	!	!LO:LB:g=original	!	!	!	!	!	!	!
=65	=65	=65	=65	=65	=65	=65	=65	=65	=65	=65	=65	=65	=65	=65	=65	=65
!	!	!	!	!	!	!	!	!	!	!	!LO:SIC:v:s=4.a-\	!	!	!	!	!
2.E-\	-4r	.	2.E-\	.	[1ee-	.	4aa-\]	.	4.E-\	i-	4.a\	-de-	1ryy	1ryy	1ryy	1ryy
.	3	.	.	.	.	.	4gg\	.	.	.	.	.	.	.	.	.
.	.	.	.	.	.	.	.	.	8E-\	-ni-	8g\	-ri-	.	.	.	.
.	.	.	.	.	.	.	4gg\	.	4E-\	-mi-	2g\	-um	.	.	.	.
4G\	6	.	4G\	.	.	.	8ff\L	.	4G\	-cis	.	.	.	.	.	.
.	.	.	.	.	.	.	8ee-\J	.	.	.	.	.	.	.	.	.
!LO:LB:g=original	!	!	!	!	!	!	!	!	!	!	!LO:LB:g=original	!	!	!	!	!
=66	=66	=66	=66	=66	=66	=66	=66	=66	=66	=66	=66	=66	=66	=66	=66	=66
2.B-\	4	.	2.B-\	.	4ee-\]	.	[1ff	.	2.B-\	su-	[1f	su-	1ryy	1ryy	1ryy	1ryy
.	3	.	.	.	4dd\	.	.	.	.	.	.	.	.	.	.	.
.	.	.	.	.	4dd\	.	.	.	.	.	.	.	.	.	.	.
4D/	6	.	4D/	.	8cc\L	.	.	.	4D/	-is	.	.	.	.	.	.
.	.	.	.	.	8b-\J	.	.	.	.	.	.	.	.	.	.	.
!	!	!	!	!	!LO:LB:g=original	!	!	!	!	!	!	!	!	!	!	!
=67	=67	=67	=67	=67	=67	=67	=67	=67	=67	=67	=67	=67	=67	=67	=67	=67
*	*	*	*	*	*	*	*	*	*	*ij	*	*	*	*	*	*
2.C/	4	.	2.C/	.	[1cc	.	4ff\]	.	2C/	su-	4f\]	.	1ryy	1ryy	1ryy	1ryy
.	3	.	.	.	.	.	4ee-\	.	.	.	4e-\	-um	.	.	.	.
.	.	.	.	.	.	.	4ee-\	.	4C/	-is	2e-\	ex	.	.	.	.
*	*	*	*	*	*	*	*	*	*	*Xij	*	*	*	*	*	*
4E-\	6	.	4E-\	.	.	.	8dd\L	.	4E-\	in	.	.	.	.	.	.
.	.	.	.	.	.	.	8cc\J	.	.	.	.	.	.	.	.	.
=68	=68	=68	=68	=68	=68	=68	=68	=68	=68	=68	=68	=68	=68	=68	=68	=68
2G\	4	.	2G\	.	4cc\]	.	[1dd	.	2G\	por-	2d\	ip-	1ryy	1ryy	1ryy	1ryy
.	.	.	.	.	4b-/	.	.	.	.	.	.	.	.	.	.	.
2GG/	3	.	2GG/	.	4b-/	.	.	.	2GG/	-ta	2d\	-sis	.	.	.	.
.	.	.	.	.	8a/L	.	.	.	.	.	.	.	.	.	.	.
.	.	.	.	.	8g/J	.	.	.	.	.	.	.	.	.	.	.
=69	=69	=69	=69	=69	=69	=69	=69	=69	=69	=69	=69	=69	=69	=69	=69	=69
!	!	!	!	!	!	!	!	!	!LO:TX:a:t=3.:mod=	!	!LO:TX:a:t=3.:mod=	!	!	!	!	!
2.C/	9	.	2.C/	.	[1ee-	.	4dd\]	.	0r	.	0r	.	1ryy	1ryy	1ryy	1ryy
.	8	.	.	.	.	.	8cc\L	.	.	.	.	.	.	.	.	.
.	.	.	.	.	.	.	8b-\J	.	.	.	.	.	.	.	.	.
!	!	!	!	!	!	!	!LO:LB:g=original	!	!	!	!	!	!	!	!	!
.	6	.	.	.	.	.	4a/	.	.	.	.	.	.	.	.	.
4C/	5	.	4C/	.	.	.	4g/	.	.	.	.	.	.	.	.	.
=70	=70	=70	=70	=70	=70	=70	=70	=70	=70	=70	=70	=70	=70	=70	=70	=70
2.D\	9 #	.	2.D\	.	4ee-\]	.	1f#X	.	.	.	.	.	1ryy	1ryy	1ryy	1ryy
.	8	.	.	.	8dd\L	.	.	.	.	.	.	.	.	.	.	.
.	.	.	.	.	8cc\J	.	.	.	.	.	.	.	.	.	.	.
.	.	.	.	.	4b-/	.	.	.	.	.	.	.	.	.	.	.
4D\	.	.	4D\	.	4a/	.	.	.	.	.	.	.	.	.	.	.
=71	=71	=71	=71	=71	=71	=71	=71	=71	=71	=71	=71	=71	=71	=71	=71	=71
.	.	.	.	.	8qqa/	.	.	.	.	.	.	.	.	.	.	.
2.E-\	7	.	2.E-\	.	1g	.	4g/	.	1r	.	1r	.	1ryy	1ryy	1ryy	1ryy
.	.	.	.	.	.	.	4gg\	.	.	.	.	.	.	.	.	.
.	.	.	.	.	.	.	8qqff/	.	.	.	.	.	.	.	.	.
.	.	.	.	.	.	.	4ee-\	.	.	.	.	.	.	.	.	.
.	.	.	.	.	.	.	8qqdd/	.	.	.	.	.	.	.	.	.
4E-\	6\	.	4E-\	.	.	.	4cc#X\	.	.	.	.	.	.	.	.	.
=72	=72	=72	=72	=72	=72	=72	=72	=72	=72	=72	=72	=72	=72	=72	=72	=72
[<1D	#	.	[<1D	.	4f#X/	.	4dd\	.	4.F#X\	glo-	4.A/	glo-	1ryy	1ryy	1ryy	1ryy
.	6 4	.	.	.	2bb-\	.	2ddd\	.	.	.	.	.	.	.	.	.
.	.	.	.	.	.	.	.	.	8B-\	-ri-	8d\	-ri-	.	.	.	.
.	.	.	.	.	.	.	.	.	2B-\	-a	2d\	-a	.	.	.	.
.	.	.	.	.	[4aa\	.	[4cccn\	.	.	.	.	.	.	.	.	.
=73	=73	=73	=73	=73	=73	=73	=73	=73	=73	=73	=73	=73	=73	=73	=73	=73
1D_<	7 #	.	1D_<	.	4aa\]	.	4ccc\]	.	2A\	Pa-	2c\	Pa-	1ryy	1ryy	1ryy	1ryy
.	6 4	.	.	.	2gg\	.	2bb-\	.	.	.	.	.	.	.	.	.
.	.	.	.	.	.	.	.	.	2G\	-tri	2B-\	-tri	.	.	.	.
.	.	.	.	.	8ff#X\L	.	8aa\L	.	.	.	.	.	.	.	.	.
.	.	.	.	.	8een\J	.	8gg\J	.	.	.	.	.	.	.	.	.
=74	=74	=74	=74	=74	=74	=74	=74	=74	=74	=74	=74	=74	=74	=74	=74	=74
1D_<	5 #	.	1D_<	.	4dd\	.	4ff#X\	.	4.F#X\	glo-	4.A/	glo-	1ryy	1ryy	1ryy	1ryy
.	6 4	.	.	.	2dd\	.	2bb-\	.	.	.	.	.	.	.	.	.
.	.	.	.	.	.	.	.	.	8B-\	-ri-	8d\	-ri-	.	.	.	.
.	.	.	.	.	.	.	.	.	2B-\	-a	2d\	-a	.	.	.	.
.	.	.	.	.	[4cc\	.	[4aa\	.	.	.	.	.	.	.	.	.
=75	=75	=75	=75	=75	=75	=75	=75	=75	=75	=75	=75	=75	=75	=75	=75	=75
1D_<	7 #	.	1D_<	.	4cc\]	.	4aa\]	.	4.A\	Fi-	4.c\	Fi-	1ryy	1ryy	1ryy	1ryy
.	6 4	.	.	.	2b-/	.	2gg\	.	.	.	.	.	.	.	.	.
.	.	.	.	.	.	.	.	.	8G\	-li-	8B-\	-li-	.	.	.	.
.	.	.	.	.	.	.	.	.	2G\	-o	2B-\	-o	.	.	.	.
.	.	.	.	.	8a/L	.	8ff#X\L	.	.	.	.	.	.	.	.	.
.	.	.	.	.	8g/J	.	8een\J	.	.	.	.	.	.	.	.	.
!	!	!	!	!	!	!	!	!	!LO:LB:g=original	!	!	!	!	!	!	!
=76	=76	=76	=76	=76	=76	=76	=76	=76	=76	=76	=76	=76	=76	=76	=76	=76
1D_<	5 #	.	1D_<	.	4f#X/	.	4dd\	.	4.F#X\	et	4.A/	et	1ryy	1ryy	1ryy	1ryy
.	6 4	.	.	.	2bb-\	.	2ddd\	.	.	.	.	.	.	.	.	.
.	.	.	.	.	.	.	.	.	8B-\	Spi-	8d\	Spi-	.	.	.	.
.	.	.	.	.	.	.	.	.	2B-\	-ri-	2d\	-ri-	.	.	.	.
.	.	.	.	.	[4aa\	.	[4ccc\	.	.	.	.	.	.	.	.	.
=77	=77	=77	=77	=77	=77	=77	=77	=77	=77	=77	=77	=77	=77	=77	=77	=77
1D_<	7 #	.	1D_<	.	4aa\]	.	4ccc\]	.	2A\	-tu-	2c\	-tu-	1ryy	1ryy	1ryy	1ryy
.	6 4	.	.	.	2gg\	.	2bb-\	.	.	.	.	.	.	.	.	.
.	.	.	.	.	.	.	.	.	2G\	-i	2B-\	-i	.	.	.	.
.	.	.	.	.	8ff#X\L	.	8aa\L	.	.	.	.	.	.	.	.	.
.	.	.	.	.	8een\J	.	8gg\J	.	.	.	.	.	.	.	.	.
=78	=78	=78	=78	=78	=78	=78	=78	=78	=78	=78	=78	=78	=78	=78	=78	=78
1D]	5 4	.	1D]	.	1ff#Xt	.	1aat	.	(2d\	San-	1At	San-	1ryy	1ryy	1ryy	1ryy
.	#	.	.	.	.	.	.	.	2D/)	.	.	.	.	.	.	.
*custos:GG	*	*	*	*	*	*	*	*	*	*	*	*	*	*	*	*
!LO:LB:g=original	!	!	!LO:LB:g=original	!	!	!	!	!	!	!	!LO:LB:g=original	!	!	!	!	!
=79	=79	=79	=79	=79	=79	=79	=79	=79	=79	=79	=79	=79	=79	=79	=79	=79
4GG/	.	.	4GG/	.	4gg\	.	2gg\	.	2GG/	-cto	2G/	-cto	1ryy	1ryy	1ryy	1ryy
4G\	.	.	4G\	.	2b-/	.	.	.	.	.	.	.	.	.	.	.
4G\	6	.	4G\	.	.	.	[2ee-\	.	4G\	si-	4e-\	si-	.	.	.	.
8F\L	.	.	8F\L	.	8a/L	.	.	.	4G\	-cut	4e-\	-cut	.	.	.	.
8E-\J	.	.	8E-\J	.	8g/J	.	.	.	.	.	.	.	.	.	.	.
!	!	!	!	!	!LO:LB:g=original	!	!	!	!	!	!	!	!	!	!	!
=80	=80	=80	=80	=80	=80	=80	=80	=80	=80	=80	=80	=80	=80	=80	=80	=80
4F\	7	.	4F\	.	4a/	.	4ee-\]	.	2.F\	e-	(4e-\	e-	1ryy	1ryy	1ryy	1ryy
4F\	.	.	4F\	.	2a/	.	4cc#X\	.	.	.	4c#X\)	.	.	.	.	.
4F\	6	.	4F\	.	.	.	4dd\	.	.	.	2d\	-rat	.	.	.	.
8E-\L	.	.	8E-\L	.	8g/L	.	[4ddd\	.	8E-\L	-rat	.	.	.	.	.	.
8D\J	.	.	8D\J	.	8f/J	.	.	.	8D\J	.	.	.	.	.	.	.
=81	=81	=81	=81	=81	=81	=81	=81	=81	=81	=81	=81	=81	=81	=81	=81	=81
4E-\	7	.	4E-\	.	4g/	.	4ddd\]	.	2.E-\	in	(4d\	in	1ryy	1ryy	1ryy	1ryy
4E-\	.	.	4E-\	.	2gg\	.	4bbn\	.	.	.	4Bn\)	.	.	.	.	.
!	!	!	!	!	!	!	!	!	!	!	!LO:SIC:s=2c	!	!	!	!	!
4E-\	6	.	4E-\	.	.	.	[2cccn\	.	.	.	2cn\	prin-	.	.	.	.
8D\L	.	.	8D\L	.	8ff\L	.	.	.	8D/L	prin-	.	.	.	.	.	.
8C\J	.	.	8C\J	.	8ee-\J	.	.	.	8C/J	.	.	.	.	.	.	.
=82	=82	=82	=82	=82	=82	=82	=82	=82	=82	=82	=82	=82	=82	=82	=82	=82
4D/	7	.	4D/	.	4ff\	.	4ccc\]	.	2.D/	-ci-	4c\	-ci-	1ryy	1ryy	1ryy	1ryy
4D/	.	.	4D/	.	2ff\	.	4aa\	.	.	.	4A/	-pi-	.	.	.	.
4D/	6	.	4D/	.	.	.	[2bb-X\	.	.	.	2B-X\	-o	.	.	.	.
8C/L	.	.	8C/L	.	8ee-\L	.	.	.	8C/L	-pi-	.	.	.	.	.	.
8BB-/J	.	.	8BB-/J	.	8dd\J	.	.	.	8BB-/J	.	.	.	.	.	.	.
!	!	!	!	!	!	!	!LO:LB:g=original	!	!	!	!	!	!	!	!	!
=83	=83	=83	=83	=83	=83	=83	=83	=83	=83	=83	=83	=83	=83	=83	=83	=83
4C/	7	.	4C/	.	4ee-\	.	4bb-\]	.	2.C/	-o	(4B-\	et	1ryy	1ryy	1ryy	1ryy
4C/	.	.	4C/	.	2ee-\	.	4gg\	.	.	.	4G/)	.	.	.	.	.
4C/	6	.	4C/	.	.	.	[2aa\	.	.	.	4A/	nunc	.	.	.	.
8BB-/L	.	.	8BB-/L	.	8dd\L	.	.	.	8BB-/L	et	4A/	et	.	.	.	.
8AA/J	.	.	8AA/J	.	8cc\J	.	.	.	8AA/J	.	.	.	.	.	.	.
!	!	!	!	!	!	!	!	!	!LO:LB:g=original	!	!	!	!	!	!	!
=84	=84	=84	=84	=84	=84	=84	=84	=84	=84	=84	=84	=84	=84	=84	=84	=84
4BB-/	7	.	4BB-/	.	4dd\	.	4aa\]	.	2.BB-/	nunc	4A/	sem-	1ryy	1ryy	1ryy	1ryy
4BB-/	.	.	4BB-/	.	2dd\	.	4ff#X\	.	.	.	4F#X/	.	.	.	.	.
4BB-/	6	.	4BB-/	.	.	.	[2gg\	.	.	.	[>2G/	.	.	.	.	.
8AA/L	.	.	8AA/L	.	8cc\L	.	.	.	8AA/L	et	.	.	.	.	.	.
8GG/J	.	.	8GG/J	.	8b-\J	.	.	.	8GG/J	.	.	.	.	.	.	.
=85	=85	=85	=85	=85	=85	=85	=85	=85	=85	=85	=85	=85	=85	=85	=85	=85
2D\	4	.	2D\	.	1a	.	2gg\]	.	2D/	sem-	2G/]	.	1ryy	1ryy	1ryy	1ryy
2DD/	#	.	2DD/	.	.	.	2ff#X\	.	2D/	-per	2F#X/	-per	.	.	.	.
!LO:LB:g=original	!	!	!	!	!	!	!	!	!	!	!	!	!	!	!	!
=86	=86	=86	=86	=86	=86	=86	=86	=86	=86	=86	=86	=86	=86	=86	=86	=86
!LO:MO:mod=*null:null	!	!	!LO:MO:mod=*null:null	!	!	!	!	!	!	!	!	!	!	!	!	!
*clefC4	*	*	*clefC4	*	*	*	*	*	*	*	*	*	*	*	*	*
!	!	!	!	!	!	!LO:MO:mod=!LO&colon;DY&colon;ed=brack	!	!	!	!	!	!	!	!	!	!
!LO:MO:mod=!LO&colon;TX&colon;a&colon;t=Tasto Solo.	!	!	!LO:TX:a:i:t=Tenor.:mod=	!	!	!null	!	!	!	!	!	!	!	!	!	!
!LO:TX:b:i:t=Tasto Solo.	!	!	!LO:TX:b:i:t=T&colon; S&colon;:mod=	!	!	!LO:MO:null:mod=f	!LO:TX:a:t=3.:mod=	!	!LO:TX:a:t=6.:mod=	!	!	!	!	!	!	!
2d\	.	.	2d\	.	2dd\	.	0r	.	00r	.	2d\	et	1ryy	1ryy	1ryy	1ryy
.	.	.	.	.	16qqcc\LL	.	.	.	.	.	16qqc\LL	.	.	.	.	.
.	.	.	.	.	16qqdd\JJ	.	.	.	.	.	16qqd\JJ	.	.	.	.	.
2e-\	.	.	2e-\	.	2ee-\	.	.	.	.	.	2e-\	in	.	.	.	.
=87	=87	=87	=87	=87	=87	=87	=87	=87	=87	=87	=87	=87	=87	=87	=87	=87
4.d\	.	.	4.d\	.	4.dd\	.	.	.	.	.	2.d\	sae-	1ryy	1ryy	1ryy	1ryy
8d\	.	.	8d\	.	8dd\	.	.	.	.	.	.	.	.	.	.	.
4d\	.	.	4d\	.	4dd\	.	.	.	.	.	.	.	.	.	.	.
4B-\	.	.	4B-\	.	4b-\	.	.	.	.	.	8B-\	-cu-	.	.	.	.
.	.	.	.	.	.	.	.	.	.	.	8B-\	-la	.	.	.	.
!	!	!	!	!	!	!	!	!	!	!	!LO:LB:g=original	!	!	!	!	!
=88	=88	=88	=88	=88	=88	=88	=88	=88	=88	=88	=88	=88	=88	=88	=88	=88
4c\	.	.	4c\	.	4cc\	.	1r	.	.	.	2.c\	sae-	1ryy	1ryy	1ryy	1ryy
4c\	.	.	4c\	.	4cc\	.	.	.	.	.	.	.	.	.	.	.
4c\	.	.	4c\	.	4cc\	.	.	.	.	.	.	.	.	.	.	.
8B-\L	.	.	8B-\L	.	8b-\L	.	.	.	.	.	8B-\L	-cu-	.	.	.	.
8A\J	.	.	8A\J	.	8a\J	.	.	.	.	.	8A\J	.	.	.	.	.
=89	=89	=89	=89	=89	=89	=89	=89	=89	=89	=89	=89	=89	=89	=89	=89	=89
4B-\	6	.	4B-\	.	4b-/	.	2gg\	f	.	.	4B-\	-lo-	1ryy	1ryy	1ryy	1ryy
4G/	.	.	4G/	.	4g/	.	.	.	.	.	4G/	-rum	.	.	.	.
[2g\	.	.	[2g\	.	[2gg\	.	2bb-\	.	.	.	[2g\	a-	.	.	.	.
=90	=90	=90	=90	=90	=90	=90	=90	=90	=90	=90	=90	=90	=90	=90	=90	=90
4g\]	+4r 2	.	4g\]	.	4gg\]	.	4.aa\	.	0r	.	4g\]	.	1ryy	1ryy	1ryy	1ryy
8f\L	.	.	8f\L	.	8ff\L	.	.	.	.	.	8f\L	.	.	.	.	.
8en\J	.	.	8en\J	.	8een\J	.	8aa\	.	.	.	8en\J	.	.	.	.	.
2f\	6	.	2f\	.	2ff\	.	4aa\	.	.	.	2f\	-men	.	.	.	.
.	.	.	.	.	.	.	4ffn\	.	.	.	.	.	.	.	.	.
!	!	!	!LO:PB:g=original	!	!	!	!	!	!	!	!	!	!	!	!	!
=91	=91	=91	=91	=91	=91	=91	=91	=91	=91	=91	=91	=91	=91	=91	=91	=91
4en\	7	.	4en\	.	4een\	.	4gg\	.	.	.	4en\	a-	1ryy	1ryy	1ryy	1ryy
4d\	.	.	4d\	.	4dd\	.	4gg\	.	.	.	4d\	.	.	.	.	.
4c#X\	6 5	.	4c#X\	.	4cc#X\	.	4gg\	.	.	.	4c#X\	.	.	.	.	.
4A/	.	.	4A\	.	4a/	.	8ff\L	.	.	.	4A/	.	.	.	.	.
.	.	.	.	.	.	.	8een\J	.	.	.	.	.	.	.	.	.
!	!	!	!	!	!LO:LB:g=original	!	!	!	!	!	!	!	!	!	!	!
=92	=92	=92	=92	=92	=92	=92	=92	=92	=92	=92	=92	=92	=92	=92	=92	=92
!LO:MO:mod=*null:null	!	!	!LO:MO:mod=*null:null	!	!	!	!	!	!	!	!	!	!	!	!	!
*clefF4	*	*	*clefF4	*	*	*	*	*	*	*	*	*	*	*	*	*
2D\	.	.	2D\	.	2dd\	.	4ff\	.	2D\	et	2d\	-men	1ryy	1ryy	1ryy	1ryy
.	.	.	.	.	.	.	4dd\	.	.	.	.	.	.	.	.	.
2E-\	6	.	2E-\	.	4r	.	[2ccc\	.	2E-\	in	4r	.	.	.	.	.
.	.	.	.	.	4gg\	.	.	.	.	.	4g\	a-	.	.	.	.
!LO:LB:g=original	!	!	!	!	!	!	!	!	!	!	!	!	!	!	!	!
=93	=93	=93	=93	=93	=93	=93	=93	=93	=93	=93	=93	=93	=93	=93	=93	=93
4.D/	7 #	.	4.D/	.	4ff#X\	.	4ccc\]	.	2.D/	sae-	4f#X\	.	1ryy	1ryy	1ryy	1ryy
.	.	.	.	.	8gg\L	.	8bb-\L	.	.	.	8g\L	.	.	.	.	.
8D/	.	.	8D/	.	8ff#X\J	.	8aa\J	.	.	.	8f#\J	.	.	.	.	.
4D/	6 6 5	.	4D/	.	[2gg\	.	2bb-\	.	.	.	[2g\	.	.	.	.	.
4BB-/	.	.	4BB-/	.	.	.	.	.	8BB-/	-cu-	.	.	.	.	.	.
.	.	.	.	.	.	.	.	.	8BB-/	-la	.	.	.	.	.	.
=94	=94	=94	=94	=94	=94	=94	=94	=94	=94	=94	=94	=94	=94	=94	=94	=94
4C/	.	.	4C/	.	2gg\]	.	1aat	.	2.C/	sae-	2g\]	.	1ryy	1ryy	1ryy	1ryy
4C/	.	.	4C/	.	.	.	.	.	.	.	.	.	.	.	.	.
4C/	6 +4r	.	4C/	.	2ff#X\	.	.	.	.	.	2f#X\	.	.	.	.	.
8BB-/L	.	.	8BB-/L	.	.	.	.	.	8BB-/L	-cu-	.	.	.	.	.	.
8AA/J	.	.	8AA/J	.	.	.	.	.	8AA/J	.	.	.	.	.	.	.
=95	=95	=95	=95	=95	=95	=95	=95	=95	=95	=95	=95	=95	=95	=95	=95	=95
4BB-/	6	.	4BB-/	.	4gg\	.	2gg\	.	4BB-/	-lo-	4g\	-men	1ryy	1ryy	1ryy	1ryy
4GG/	.	.	4GG/	.	4b-/	.	.	.	4GG/	-rum	4B-\	a-	.	.	.	.
[2G\	6	.	[2G\	.	4ee-\	.	4r	.	[2G\	a-	4e-\	.	.	.	.	.
.	5	.	.	.	4dd\	.	4bb-\	.	.	.	4d\	.	.	.	.	.
=96	=96	=96	=96	=96	=96	=96	=96	=96	=96	=96	=96	=96	=96	=96	=96	=96
4G\]	+4r 2	.	4G\]	.	2cc#X\	.	4aa\	.	4G\]	.	2c#X\	.	1ryy	1ryy	1ryy	1ryy
8F\L	.	.	8F\L	.	.	.	4aa\	.	8F\L	.	.	.	.	.	.	.
8En\J	.	.	8En\J	.	.	.	.	.	8En\J	.	.	.	.	.	.	.
[2F\	6	.	[2F\	.	2dd\	.	4aa\	.	[2F\	.	2d\	.	.	.	.	.
.	.	.	.	.	.	.	8gg\L	.	.	.	.	.	.	.	.	.
.	.	.	.	.	.	.	8ff\J	.	.	.	.	.	.	.	.	.
!	!	!	!	!	!	!	!	!	!	!	!LO:LB:g=original	!	!	!	!	!
=97	=97	=97	=97	=97	=97	=97	=97	=97	=97	=97	=97	=97	=97	=97	=97	=97
4F\]	n4r 2	.	4F\]	.	2bn\	.	4gg\	.	4F\]	.	2Bn\	.	1ryy	1ryy	1ryy	1ryy
8E-X\L	.	.	8E-X\L	.	.	.	4gg\	.	8E-X\L	.	.	.	.	.	.	.
8D\J	.	.	8D\J	.	.	.	.	.	8D\J	.	.	.	.	.	.	.
!	!	!	!	!	!	!	!	!	!LO:LB:g=original	!	!	!	!	!	!	!
[2E-\	6	.	[2E-\	.	2ccn\	.	4gg\	.	[2E-\	.	2cn\	.	.	.	.	.
.	.	.	.	.	.	.	8ff\L	.	.	.	.	.	.	.	.	.
.	.	.	.	.	.	.	8ee-\J	.	.	.	.	.	.	.	.	.
!	!	!	!	!	!	!	!LO:LB:g=original	!	!	!	!	!	!	!	!	!
=98	=98	=98	=98	=98	=98	=98	=98	=98	=98	=98	=98	=98	=98	=98	=98	=98
4E-\]	4 2	.	4E-\]	.	2a/	.	4ff\	.	4E-\]	.	2A/	.	1ryy	1ryy	1ryy	1ryy
8D/L	.	.	8D/L	.	.	.	4ff\	.	8D/L	.	.	.	.	.	.	.
8C/J	.	.	8C/J	.	.	.	.	.	8C/J	.	.	.	.	.	.	.
[2D/	6	.	[2D/	.	2b-X/	.	4ff\	.	[2D/	.	[2B-X\	.	.	.	.	.
.	.	.	.	.	.	.	8ee-\L	.	.	.	.	.	.	.	.	.
.	.	.	.	.	.	.	8dd\J	.	.	.	.	.	.	.	.	.
!LO:LB:g=original	!	!	!	!	!	!	!	!	!	!	!	!	!	!	!	!
=99	=99	=99	=99	=99	=99	=99	=99	=99	=99	=99	=99	=99	=99	=99	=99	=99
4D/]	4 2	.	4D/]	.	2g/	.	4ee-\	.	4D/]	.	2B-\]	.	1ryy	1ryy	1ryy	1ryy
8C/L	.	.	8C/L	.	.	.	4ee-\	.	8C/L	.	.	.	.	.	.	.
8BB-/J	.	.	8BB-/J	.	.	.	.	.	8BB-/J	.	.	.	.	.	.	.
[2C/	6	.	[2C/	.	2a/	.	4ee-\	.	[2C/	.	[2A/	.	.	.	.	.
.	.	.	.	.	.	.	8dd\L	.	.	.	.	.	.	.	.	.
.	.	.	.	.	.	.	8cc\J	.	.	.	.	.	.	.	.	.
=100	=100	=100	=100	=100	=100	=100	=100	=100	=100	=100	=100	=100	=100	=100	=100	=100
4C/]	+4r 2	.	4C/]	.	2f#X/	.	4dd\	.	4C/]	.	2A/]	.	1ryy	1ryy	1ryy	1ryy
8BB-/L	.	.	8BB-/L	.	.	.	4dd\	.	8BB-/L	.	.	.	.	.	.	.
8AA/J	.	.	8AA/J	.	.	.	.	.	8AA/J	.	.	.	.	.	.	.
!	!	!	!LO:LB:g=original	!	!	!	!	!	!	!	!	!	!	!	!	!
4BB-/	6	.	4BB-/	.	[2g/	.	4dd\	.	4BB-/	.	[2G/	.	.	.	.	.
8AA/L	.	.	8AA/L	.	.	.	8cc\L	.	8AA/L	.	.	.	.	.	.	.
8GG/J	.	.	8GG/J	.	.	.	8b-\J	.	8GG/J	.	.	.	.	.	.	.
=101	=101	=101	=101	=101	=101	=101	=101	=101	=101	=101	=101	=101	=101	=101	=101	=101
1AA	7	.	1AA	.	2g/]	.	4cc\	.	1AA	.	2G/]	.	1ryy	1ryy	1ryy	1ryy
.	.	.	.	.	.	.	4cc\	.	.	.	.	.	.	.	.	.
.	6\	.	.	.	2f#X/	.	4cc\	.	.	.	2F#X/	.	.	.	.	.
.	.	.	.	.	.	.	8b-\L	.	.	.	.	.	.	.	.	.
.	.	.	.	.	.	.	8a\J	.	.	.	.	.	.	.	.	.
=102	=102	=102	=102	=102	=102	=102	=102	=102	=102	=102	=102	=102	=102	=102	=102	=102
4GG/	.	.	4GG/	.	4g/	.	4b-\	.	4GG/	-men	4G/	-men	1ryy	1ryy	1ryy	1ryy
4C/	.	.	4C/	.	2gg\	.	4ee-\	.	4c\	a-	4e-\	a-	.	.	.	.
4BB-/	6	.	4BB-/	.	.	.	4dd\	.	4B-\	.	4d\	.	.	.	.	.
4AA/	7	.	4AA/	.	[4gg\	.	4cc\	.	4A\	.	4c\	.	.	.	.	.
=103	=103	=103	=103	=103	=103	=103	=103	=103	=103	=103	=103	=103	=103	=103	=103	=103
4GG/	8	.	4GG/	.	4gg\]	.	4b-\	.	4G\	.	4B-\	-men	1ryy	1ryy	1ryy	1ryy
.	.	.	.	.	.	.	.	.	.	.	16qqc\LL	.	.	.	.	.
.	.	.	.	.	.	.	.	.	.	.	16qqd\JJ	.	.	.	.	.
4C/	.	.	4C/	.	2gg\	.	4ee-\	.	4c\	.	4e-\	a-	.	.	.	.
4BB-/	6	.	4BB-/	.	.	.	4dd\	.	4B-\	.	4d\	.	.	.	.	.
4C/	.	.	4C/	.	4gg\	.	4ccc\	.	4c\	.	4c\	.	.	.	.	.
!	!	!	!	!	!LO:LB:g=original	!	!	!	!	!	!	!	!	!	!	!
=104	=104	=104	=104	=104	=104	=104	=104	=104	=104	=104	=104	=104	=104	=104	=104	=104
2D\	6 4	.	2D\	.	2gg\	.	2bb-\	.	2d\	.	2B-\	.	1ryy	1ryy	1ryy	1ryy
2DD/	5 #	.	2DD/	.	2ff#Xt\	.	2aat\	.	2D/	.	2A/	-men	.	.	.	.
=105	=105	=105	=105	=105	=105	=105	=105	=105	=105	=105	=105	=105	=105	=105	=105	=105
2F#X\	7 5	.	2F#X\	.	4r	.	4r	.	2F#X\	-men	4r	.	1ryy	1ryy	1ryy	1ryy
.	.	.	.	.	2cc\	.	2ee-\	.	.	.	2e-\	a-	.	.	.	.
!LO:TX:b:i:t=Volti.:mod=	!	!	!	!	!	!	!	!	!LO:LB:g=original	!	!	!	!	!	!	!
2r	.	.	2r	.	.	.	.	.	2r	.	.	.	.	.	.	.
.	.	.	.	.	8b-/L	.	8dd\L	.	.	.	8d\L	.	.	.	.	.
.	.	.	.	.	8a/J	.	8cc\J	.	.	.	8c\J	.	.	.	.	.
!LO:PB:g=original	!	!	!	!	!	!	!	!	!	!	!	!	!	!	!	!
=106	=106	=106	=106	=106	=106	=106	=106	=106	=106	=106	=106	=106	=106	=106	=106	=106
4r	.	.	4r	.	2g/	.	2b-/	.	4r	.	2B-\	.	1ryy	1ryy	1ryy	1ryy
4G\	.	.	4G\	.	.	.	.	.	4G\	a-	.	.	.	.	.	.
4d\	#	.	4d\	.	2f#Xt/	.	2at/	.	4d\	.	2At\	-men	.	.	.	.
4D/	.	.	4D/	.	.	.	.	.	4D/	.	.	.	.	.	.	.
!	!	!	!	!	!	!	!	!	!	!	!LO:LB:g=original	!	!	!	!	!
=107	=107	=107	=107	=107	=107	=107	=107	=107	=107	=107	=107	=107	=107	=107	=107	=107
2F#X\	7 5	.	2F#X\	.	4r	.	4r	.	2F#X\	-men	4r	.	1ryy	1ryy	1ryy	1ryy
.	.	.	.	.	2cc\	.	2ee-\	.	.	.	2e-\	a-	.	.	.	.
4r	.	.	4r	.	.	.	.	.	4r	.	.	.	.	.	.	.
4D/	7 #	.	4D/	.	8b-/L	.	8dd\L	.	4D/	a-	8d\L	.	.	.	.	.
.	.	.	.	.	8a/J	.	8cc\J	.	.	.	8c\J	.	.	.	.	.
=108	=108	=108	=108	=108	=108	=108	=108	=108	=108	=108	=108	=108	=108	=108	=108	=108
4GG/	.	.	4GG/	.	2g/	.	2b-/	.	4G\	.	2B-\	.	1ryy	1ryy	1ryy	1ryy
4BB-/	.	.	4BB-/	.	.	.	.	.	4B-\	.	.	.	.	.	.	.
!	!	!	!	!	!	!	!	!	!	!	!	!LO:MO:mod=.	!	!	!	!
4D/	#	.	4D/	.	2f#Xt/	.	2at/	.	4d\	.	2At/	-men.	.	.	.	.
4DD/	.	.	4DD/	.	.	.	.	.	4D/	.	.	.	.	.	.	.
=109	=109	=109	=109	=109	=109	=109	=109	=109	=109	=109	=109	=109	=109	=109	=109	=109
!	!	!	!	!	!	!	!	!	!	!	!	!LO:MO:null:mod=-men.	!	!	!	!
[1GG	5	.	[1GG	.	2g/	.	4g/	.	2G\	-men.	2G/	.	1ryy	1ryy	1ryy	1ryy
.	.	.	.	.	.	.	4gg\	.	.	.	.	.	.	.	.	.
.	8 6	.	.	.	[2ee-\	.	4gg\	.	2r	.	2r	.	.	.	.	.
!	!	!	!	!	!	!	!LO:SIC:s=8ffL	!	!	!	!	!	!	!	!	!
.	.	.	.	.	.	.	8ffn\L	.	.	.	.	.	.	.	.	.
.	.	.	.	.	.	.	8ee-\J	.	.	.	.	.	.	.	.	.
=110	=110	=110	=110	=110	=110	=110	=110	=110	=110	=110	=110	=110	=110	=110	=110	=110
!	!	!	!	!	!	!	!	!	!LO:TX:a:t=10.:mod=	!	!LO:TX:a:t=10.:mod=	!	!	!	!	!
1GG_	n7r 6	.	1GG_	.	4ee-\]	.	[1ff	.	00r	.	00r	.	1ryy	1ryy	1ryy	1ryy
.	.	.	.	.	4ee-\	.	.	.	.	.	.	.	.	.	.	.
.	.	.	.	.	4ee-\	.	.	.	.	.	.	.	.	.	.	.
.	.	.	.	.	8dd\L	.	.	.	.	.	.	.	.	.	.	.
.	.	.	.	.	8cc\J	.	.	.	.	.	.	.	.	.	.	.
!	!	!	!	!	!	!	!LO:LB:g=original	!	!	!	!	!	!	!	!	!
=111	=111	=111	=111	=111	=111	=111	=111	=111	=111	=111	=111	=111	=111	=111	=111	=111
1GG_	7 5	.	1GG_	.	[1dd	.	4ff\]	.	.	.	.	.	1ryy	1ryy	1ryy	1ryy
.	.	.	.	.	.	.	4ff\	.	.	.	.	.	.	.	.	.
.	.	.	.	.	.	.	4ff\	.	.	.	.	.	.	.	.	.
.	.	.	.	.	.	.	8ee-\L	.	.	.	.	.	.	.	.	.
.	.	.	.	.	.	.	8dd\J	.	.	.	.	.	.	.	.	.
=112	=112	=112	=112	=112	=112	=112	=112	=112	=112	=112	=112	=112	=112	=112	=112	=112
1GG_	6 5	.	1GG_	.	4dd\]	.	[1ee-	.	.	.	.	.	1ryy	1ryy	1ryy	1ryy
.	.	.	.	.	4dd\	.	.	.	.	.	.	.	.	.	.	.
.	.	.	.	.	4dd\	.	.	.	.	.	.	.	.	.	.	.
.	.	.	.	.	8cc\L	.	.	.	.	.	.	.	.	.	.	.
.	.	.	.	.	8bn\J	.	.	.	.	.	.	.	.	.	.	.
=113	=113	=113	=113	=113	=113	=113	=113	=113	=113	=113	=113	=113	=113	=113	=113	=113
1GG]	6 4	.	1GG]	.	4cc\	.	4ee-\]	.	.	.	.	.	1ryy	1ryy	1ryy	1ryy
.	.	.	.	.	4cc\	.	4ee-\	.	.	.	.	.	.	.	.	.
.	.	.	.	.	4cc\	.	4ee-\	.	.	.	.	.	.	.	.	.
.	.	.	.	.	8b-X/L	.	8dd\L	.	.	.	.	.	.	.	.	.
.	.	.	.	.	8a/J	.	8cc\J	.	.	.	.	.	.	.	.	.
=114	=114	=114	=114	=114	=114	=114	=114	=114	=114	=114	=114	=114	=114	=114	=114	=114
4GG/	5 3	.	4GG/	.	4g/	.	4b-\	.	00r	.	00r	.	1ryy	1ryy	1ryy	1ryy
4G\	.	.	4G\	.	2bb-\	.	[2.ee-\	.	.	.	.	.	.	.	.	.
4G\	6	.	4G\	.	.	.	.	.	.	.	.	.	.	.	.	.
8F\L	.	.	8F\L	.	8aa\L	.	.	.	.	.	.	.	.	.	.	.
8E-\J	.	.	8E-\J	.	8gg\J	.	.	.	.	.	.	.	.	.	.	.
!	!	!	!	!	!LO:LB:g=original	!	!	!	!	!	!	!	!	!	!	!
=115	=115	=115	=115	=115	=115	=115	=115	=115	=115	=115	=115	=115	=115	=115	=115	=115
4F\	7	.	4F\	.	4aa\	.	8ee-\L]	.	.	.	.	.	1ryy	1ryy	1ryy	1ryy
.	.	.	.	.	.	.	8cc#X\J	.	.	.	.	.	.	.	.	.
.	.	.	.	.	.	.	8qqcc#/	.	.	.	.	.	.	.	.	.
4F\	.	.	4F\	.	2aa\	.	[2.dd\	.	.	.	.	.	.	.	.	.
!	!	!	!LO:LB:g=original	!	!	!	!	!	!	!	!	!	!	!	!	!
4F\	6	.	4F\	.	.	.	.	.	.	.	.	.	.	.	.	.
8E-\L	.	.	8E-\L	.	8gg\L	.	.	.	.	.	.	.	.	.	.	.
8D\J	.	.	8D\J	.	8ff\J	.	.	.	.	.	.	.	.	.	.	.
=116	=116	=116	=116	=116	=116	=116	=116	=116	=116	=116	=116	=116	=116	=116	=116	=116
4E-\	7	.	4E-\	.	4gg\	.	8dd\L]	.	.	.	.	.	1ryy	1ryy	1ryy	1ryy
.	.	.	.	.	.	.	8bn\J	.	.	.	.	.	.	.	.	.
.	.	.	.	.	.	.	8qqb/	.	.	.	.	.	.	.	.	.
!	!	!	!	!	!	!	!LO:SIC:s=[2.cc	!	!	!	!	!	!	!	!	!
4E-\	.	.	4E-\	.	2gg\	.	[2.ccn\	.	.	.	.	.	.	.	.	.
4E-\	6	.	4E-\	.	.	.	.	.	.	.	.	.	.	.	.	.
8D\L	.	.	8D\L	.	8ff#X\L	.	.	.	.	.	.	.	.	.	.	.
8C\J	.	.	8C\J	.	8een\J	.	.	.	.	.	.	.	.	.	.	.
=117	=117	=117	=117	=117	=117	=117	=117	=117	=117	=117	=117	=117	=117	=117	=117	=117
2D\	7 #	.	2D\	.	2ff#X\	.	4cc\]	.	.	.	.	.	1ryy	1ryy	1ryy	1ryy
.	.	.	.	.	.	.	8b-X/L	.	.	.	.	.	.	.	.	.
.	.	.	.	.	.	.	8a/J	.	.	.	.	.	.	.	.	.
2G\	.	.	2G\	.	2gg\	.	4b-/	.	.	.	.	.	.	.	.	.
.	.	.	.	.	.	.	4gg\	.	.	.	.	.	.	.	.	.
=118	=118	=118	=118	=118	=118	=118	=118	=118	=118	=118	=118	=118	=118	=118	=118	=118
2C/	.	.	2C/	.	4r	.	4r	.	0r	.	0r	.	1ryy	1ryy	1ryy	1ryy
!	!	!	!	!	!LO:SIC:s=(4g	!	!	!	!	!	!	!	!	!	!	!
.	.	.	.	.	4g/	.	(4ee-\	.	.	.	.	.	.	.	.	.
!	!	!	!	!	!LO:SIC:s=4B-)	!	!	!	!	!	!	!	!	!	!	!
2D/	6 4	.	2D/	.	4B-/	.	4dd\)	.	.	.	.	.	.	.	.	.
!	!	!	!	!	!LO:SIC:s=4A|	!	!	!	!	!	!	!	!	!	!	!
.	7 #	.	.	.	4A/	.	4f#X/|	.	.	.	.	.	.	.	.	.
=119	=119	=119	=119	=119	=119	=119	=119	=119	=119	=119	=119	=119	=119	=119	=119	=119
2GG/	.	.	2GG/	.	2G/	.	2g/	.	.	.	.	.	1ryy	1ryy	1ryy	1ryy
2r	.	.	2r	.	2r	.	2r	.	.	.	.	.	.	.	.	.
==	==	==	==	==	==	==	==	==	==	==	==	==	==	==	==	==
*-	*-	*-	*-	*-	*-	*-	*-	*-	*-	*-	*-	*-	*-	*-	*-	*-
!!!system-decoration: [(g1)][(g2)][(g3)][(g4)]
!!!system-decoration-mod: <s9>[(g1)][(g2)][(g3)]<s10>
!!!RDF**kern: > = above
!!!RDF**kern: < = below
!!!RDF**kern: | = vertical stroke
!!LO:MO:ori
!!!RDF**dynam: p = "pia"
!!!RDF**dynam: f = "for"
!!LO:MO:mod
!! !!!RDF**kern: @ = marked note, color=grey
!!LO:MO:end
!!!ENC: Andrzej Kubiczek
!!!END: 2022-04-07
!!!ENC: Andrzej Kubiczek
!!!END: 2022-04-08
!!!ENC-modern: Andrzej Kubiczek
!!!END-modern: 2022-09-26
!!!filter-modern: shed -k -e "s/([^a-gA-Gn#X-])[<>]/$1/g" | extract -k 1,3-$,2 | shed -e "s/:rj/:RJ/L" | shed -e "s/^custos:/Xcustos:/I" | shed -e "s/^(\d+[\/\\]right)/$1yy/I" | shed -e "s/TX(.*):t=P:/tx$1:t=P:/LG" | shed -e "s/(LO:DY.*):t=(.*$)/$1:T=$2/L; s/LO:DY(.*)(:a:)(.*)/LO:dy:$1$2$3/L; s/LO:DY(.*)(:b:)(.*)/LO:dy:$1$2$3/L; s/LO:DY(.*)(:rj:)(.*)/LO:dy:$1$2$3/L"| sic -sq | modori -m | autostem -r | tie -s | humtr -p | shed -e "s/yy//"
!!!YEC: Copyright 2022 Narodowy Instytut Fryderyka Chopina (https://polishscores.org)
!!!YEM: License CC-BY-4.0 (https://creativecommons.org/licenses/by/4.0)
